!!!!SEGMENT: pl-wtm--r-910-m--003_moniuszko-stanislaw--litania-ostrobramska-ora-pro-nobis.krn
!!!cenid: 18xx:2545
!!!COM: Moniuszko, Stanisław
!!!COM-rism: pe30008351
!!!CDT: 1819/05/05-1872/06/04
!!!CNT: Polish
!!!OTL: Litania Ostrobramska – Ora pro nobis
!!!PDT: 1855
!!!AGN: Sacred; Mass
!!!SMS-siglum: PL-Wtm
!!!SMS-shelfmark: R 910/M
!!!NIFC-rismID: 1001091649
!!!URL-scan: http://repozytorium.nifc.pl/skany/pl-wtm-nut--r910m
!!!ONB-nifc: UWAGA: części Litanii: 1. Kyrie, 2. Christe audi nos, 3. Ora pro nobis, 4. Agnus Dei
!!!SMS-variant:
!!!SMS-altvar:
**kern	**kern	**dynam	**kern	**text	**dynam	**kern	**text	**dynam	**kern	**text	**dynam	**kern	**text	**dynam	**kern	**text	**dynam	**kern	**text	**dynam	**kern	**text	**dynam	**kern	**text	**dynam
*	*	*	*group2	*group2	*group2	*group2	*group2	*group2	*group2	*group2	*group2	*group2	*group2	*group2	*group1	*group1	*group1	*group1	*group1	*group1	*group1	*group1	*group1	*group1	*group1	*group1
*part9	*part9	*part9	*part8	*part8	*part8	*part7	*part7	*part7	*part6	*part6	*part6	*part5	*part5	*part5	*part4	*part4	*part4	*part3	*part3	*part3	*part2	*part2	*part2	*part1	*part1	*part1
*staff10	*staff9	*	*staff8	*staff8	*	*staff7	*staff7	*	*staff6	*staff6	*	*staff5	*staff5	*	*staff4	*staff4	*	*staff3	*staff3	*	*staff2	*staff2	*	*staff1	*staff1	*
*""Fortepian	*""Fortepian	*	*""Chór	*	*	*""Chór	*	*	*""Chór	*	*	*""Chór	*	*	*""Głosy solowe	*	*	*""Głosy solowe	*	*	*""Głosy solowe	*	*	*""Głosy solowe	*	*
*	*	*	*I"Bas	*	*	*I"Tenor .	*	*	*I"Alt .	*	*	*I"Sopran	*	*	*I"Bas	*	*	*I"Tenor	*	*	*I"Alt .	*	*	*I"Sopran .	*	*
*clefF4	*clefG2	*	*clefF4	*	*	*clefG2	*	*	*clefG2	*	*	*clefG2	*	*	*clefF4	*	*	*clefG2	*	*	*clefG2	*	*	*clefG2	*	*
*	*	*	*	*	*	*ITrd7c12	*	*	*	*	*	*	*	*	*	*	*	*ITrd7c12	*	*	*	*	*	*	*	*
*k[f#]	*k[f#]	*	*k[f#]	*	*	*k[f#]	*	*	*k[f#]	*	*	*k[f#]	*	*	*k[f#]	*	*	*k[f#]	*	*	*k[f#]	*	*	*k[f#]	*	*
*M4/4	*M4/4	*	*M4/4	*	*	*M4/4	*	*	*M4/4	*	*	*M4/4	*	*	*M4/4	*	*	*M4/4	*	*	*M4/4	*	*	*M4/4	*	*
*met(c)	*met(c)	*	*met(c)	*	*	*met(c)	*	*	*met(c)	*	*	*met(c)	*	*	*met(c)	*	*	*met(c)	*	*	*met(c)	*	*	*met(c)	*	*
=1	=1	=1	=1	=1	=1	=1	=1	=1	=1	=1	=1	=1	=1	=1	=1	=1	=1	=1	=1	=1	=1	=1	=1	=1	=1	=1
!	!LO:TX:a:B:t=Lento.	!	!	!	!LO:DY:rj	!	!	!	!	!	!	!LO:TX:a:B:t=Lento.	!	!	!	!	!	!	!	!	!	!	!	!LO:TX:a:B:t=Lento.	!	!
!	!	!	!	!	!	!	!	!	!	!	!	!	!	!	!	!	!	!	!	!	!	!	!	!LO:TX:t=P:problem:krzyżtk przy kluczu na niebiesko we wszystkich systemach - potem wszędzie na poczatku strony przy kluczu G2 skreślony krzyżyk f# a wpisany na niebiesko ff#	!	!
1r	1r	.	4c\	O-	f	4c\	O-	f	4g/	O-	f	4ee\	O-	f	4c\	O-	f	4c\	O-	f	4g/	O-	f	4ee\	O-	f
.	.	.	8.c\	-ra	.	8.c\	-ra	.	8.g/	-ra	.	8.ee\	-ra	.	8.c\	-ra	.	8.c\	-ra	.	8.g/	-ra	.	8.ee\	-ra	.
.	.	.	16c\	pro	.	16c\	pro	.	16g/	pro	.	16ee\	pro	.	16c\	pro	.	16c\	pro	.	16g/	pro	.	16ee\	pro	.
*	*	*	*	*	*	*2\right	*	*	*	*	*	*	*	*	*	*	*	*2\right	*	*	*	*	*	*	*	*
!	!	!	!	!	!LO:HP:color=red	!	!	!LO:HP:color=red	!	!	!	!	!	!LO:HP:b	!	!	!LO:HP:b	!	!	!	!	!	!	!	!	!
.	.	.	(4.A\	no-	>	[2e\	no-	>	2g/	no-	>]	(4.cc\	no-	>	(4.A\	no-	>	[2e\	no-	>]	2g/	no-	>]	(4.cc\	no-	>
.	.	.	8B\)	.	.	.	.	.	.	.	.	8b\)	.	]]	8B\)	.	]]	.	.	.	.	.	.	8b\)	.	]]
=2	=2	=2	=2	=2	=2	=2	=2	=2	=2	=2	=2	=2	=2	=2	=2	=2	=2	=2	=2	=2	=2	=2	=2	=2	=2	=2
!	!	!	!	!	!	!	!	!LO:DY:color=red	!	!	!	!	!	!	!	!	!LO:DY:rj:b:t=p.	!	!	!	!	!	!	!	!	!
1r	1r	.	4c\	-bis,	]	(2e\]	.	] p	4g/	-bis,	.	4a\	-bis,	.	4c,\	-bis.	p	2e\]	.	.	4g/	-bis.	.	4a\	-bis.	.
!	!	!	!	!	!LO:DY:rj:color=red	!	!	!	!	!	!LO:DY:rj	!	!	!LO:DY:rj	!	!	!LO:DY:b:rj:color=red	!	!	!	!	!	!	!	!	!
.	.	.	4A\	pro	p	.	.	.	4g/	pro	p	4cc\	pro	p	4A\	pro	p	.	.	.	4r	.	.	4r	.	.
*	*	*	*	*	*	*	*	*	*	*	*	*	*	*	*2\right	*	*	*	*	*	*	*	*	*	*	*
.	.	.	(4d\	no-	.	4.d\	.	.	(4g/	no-	.	(4.b\	no-	.	2d\	no-	.	8d\	-bis.	.	4r	.	.	4r	.	.
.	.	.	.	.	.	.	.	.	.	.	.	.	.	.	.	.	.	8r	.	.	.	.	.	.	.	.
!	!	!	!	!	!	!	!	!	!	!	!	!	!	!	!	!	!	!	!	!LO:DY:rj:b:color=blue	!	!	!LO:DY:b:color=blue	!	!	!LO:DY:rj:color=blue
.	.	.	4D\)	.	.	.	.	.	4f#/)	.	.	.	.	.	.	.	.	4D/	Re-	p	4d/	Re-	p	4d/	Re-	p
.	.	.	.	.	.	8c\)	.	.	.	.	.	8a\)	.	.	.	.	.	.	.	.	.	.	.	.	.	.
=3||	=3||	=3||	=3||	=3||	=3||	=3||	=3||	=3||	=3||	=3||	=3||	=3||	=3||	=3||	=3||	=3||	=3||	=3||	=3||	=3||	=3||	=3||	=3||	=3||	=3||	=3||
*	*^	*	*	*	*	*	*	*	*	*	*	*	*	*	*	*	*	*	*	*	*	*	*	*	*	*
*	*	*Xtuplet	*	*	*	*	*	*	*	*	*	*	*	*	*	*	*	*	*	*	*	*	*	*	*	*	*
!	!LO:TX:a:B:t=Allegro moderato.	!	!LO:DY:rj:color=blue	!	!	!	!	!	!	!	!	!	!LO:TX:a:B:t=Allegro moderato.	!	!	!	!	!	!	!	!	!	!LO:TX:a:B:t=Allegro moderato.	!	!	!	!
[1D/ [1GG/	(>4g/	12B</L	p	8G\	-bis.	.	8B\	-bis.	.	8g/	-bis.	.	8g/	-bis.	.	4G\	-bis.	.	4B/	-fu-	.	4d/	-fu-	.	4g/	-fu-	.
.	.	12d</	.	.	.	.	.	.	.	.	.	.	.	.	.	.	.	.	.	.	.	.	.	.	.	.	.
.	.	.	.	8r	.	.	8r	.	.	8r	.	.	8r	.	.	.	.	.	.	.	.	.	.	.	.	.	.
.	.	12B</J	.	.	.	.	.	.	.	.	.	.	.	.	.	.	.	.	.	.	.	.	.	.	.	.	.
!	!	!	!	!	!	!	!	!	!	!	!	!	!	!	!	!	!	!	!	!	!	!	!	!	!	!	!LO:HP:b:t=crescen:color=blue
.	8.f#/L	12A</L	.	4r	.	.	4r	.	.	4r	.	.	4r	.	.	4r	.	.	4A/	-gium	.	4c/	-gium	.	8.f#/	-gi-	<
.	.	12d</	.	.	.	.	.	.	.	.	.	.	.	.	.	.	.	.	.	.	.	.	.	.	.	.	.
.	.	12c</J	.	.	.	.	.	.	.	.	.	.	.	.	.	.	.	.	.	.	.	.	.	.	.	.	.
.	16a/Jk	.	.	.	.	.	.	.	.	.	.	.	.	.	.	.	.	.	.	.	.	.	.	.	16a/	-um	.
!	!LO:TX:t=P:problem:mixed beam	!	!	!	!	!	!	!	!	!	!	!	!	!	!	!	!	!	!LO:TX:b:t=crescen_:ext=u:problem:dynamics with extension lines	!	!LO:HP:b:t=crescen_	!	!	!	!	!	!
.	4g/	12B</L	.	2r	.	.	2r	.	.	2r	.	.	2r	.	.	2r	.	.	4G/	pec-	<	4B/	pec-	.	4g/	pec-	.
.	.	12d</	.	.	.	.	.	.	.	.	.	.	.	.	.	.	.	.	.	.	.	.	.	.	.	.	.
.	.	12g\J	.	.	.	.	.	.	.	.	.	.	.	.	.	.	.	.	.	.	.	.	.	.	.	.	.
.	4a/	12f#\L	.	.	.	.	.	.	.	.	.	.	.	.	.	.	.	.	4F#/	-ca-	.	4d/	-ca-	.	4a/	-ca-	.
!	!	!	!LO:HP:t=crescen:color=blue	!	!	!	!	!	!	!	!	!	!	!	!	!	!	!	!	!	!	!	!	!	!	!	!
.	.	12d\	<	.	.	.	.	.	.	.	.	.	.	.	.	.	.	.	.	.	.	.	.	.	.	.	.
.	.	12f#\J	.	.	.	.	.	.	.	.	.	.	.	.	.	.	.	.	.	.	.	.	.	.	.	.	.
=4	=4	=4	=4	=4	=4	=4	=4	=4	=4	=4	=4	=4	=4	=4	=4	=4	=4	=4	=4	=4	=4	=4	=4	=4	=4	=4	=4
!	!	!	!	!	!	!	!	!	!	!	!	!LO:DY:b:rj:color=blue	!	!	!	!	!	!	!	!	!	!	!	!	!	!	!
1G/ 1D/] 1GG/]	4b/	12g\L	.	1r	.	.	1r	.	.	2d/	o-	p	1r	.	.	2r	.	.	4.G/	-to-	.	4d/	-to-	.	(4b/	-to-	.
.	.	12d\	.	.	.	.	.	.	.	.	.	.	.	.	.	.	.	.	.	.	.	.	.	.	.	.	.
.	.	12g\J	.	.	.	.	.	.	.	.	.	.	.	.	.	.	.	.	.	.	.	.	.	.	.	.	.
.	8.a/L	12f#\L	.	.	.	.	.	.	.	.	.	.	.	.	.	.	.	.	.	.	.	4f#/	-rum,	.	8.a/)	.	.
.	.	12d\	.	.	.	.	.	.	.	.	.	.	.	.	.	.	.	.	.	.	.	.	.	.	.	.	.
.	.	.	.	.	.	.	.	.	.	.	.	.	.	.	.	.	.	.	8d\	-rum,	[	.	.	.	.	.	.
.	.	12a\J	.	.	.	.	.	.	.	.	.	.	.	.	.	.	.	.	.	.	.	.	.	.	.	.	.
!	!	!	!	!	!	!	!	!	!	!	!	!	!	!	!	!	!	!	!	!	!	!	!	!	!LO:TX:i:b:t=do:color=red	!	!
.	16cc/Jk	.	.	.	.	.	.	.	.	.	.	.	.	.	.	.	.	.	.	.	.	.	.	.	16cc/	-rum,	.
!	!	!	!	!	!	!	!	!	!	!	!	!	!	!	!	!	!	!LO:HP:color=blue	!	!	!	!	!	!	!	!	!
!	!	!	!	!	!	!	!	!	!	!	!	!	!	!	!	!	!	!LO:DY:rj:color=blue	!	!	!	!	!	!	!	!	!
.	4b/	12g\L	.	.	.	.	.	.	.	4.d/	-ra	.	.	.	.	4G\	Con-	p <	4d\	Co-	.	4g/	Con-	.	4b/	Con-	.
.	.	12d\	.	.	.	.	.	.	.	.	.	.	.	.	.	.	.	.	.	.	.	.	.	.	.	.	.
.	.	12g\J	.	.	.	.	.	.	.	.	.	.	.	.	.	.	.	.	.	.	.	.	.	.	.	.	.
.	4dd/	12a\L	.	.	.	.	.	.	.	.	.	.	.	.	.	4D\	-so-	[[	4d\	-so-	.	4a/	-so-	.	4dd\	-so-	.
.	.	12d\	.	.	.	.	.	.	.	.	.	.	.	.	.	.	.	.	.	.	.	.	.	.	.	.	.
.	.	.	.	.	.	.	.	.	.	8d/	pro	.	.	.	.	.	.	.	.	.	.	.	.	.	.	.	.
.	.	12a\J)	.	.	.	.	.	.	.	.	.	.	.	.	.	.	.	.	.	.	.	.	.	.	.	.	.
!!LO:PB:g=original
=5	=5	=5	=5	=5	=5	=5	=5	=5	=5	=5	=5	=5	=5	=5	=5	=5	=5	=5	=5	=5	=5	=5	=5	=5	=5	=5	=5
!	!	!	!LO:DY:color=blue	!	!	!	!	!	!LO:DY:b:rj:color=red	!	!	!	!	!	!	!	!	!LO:DY:color=blue	!	!	!LO:DY:color=blue	!	!	!LO:DY:color=red	!	!	!LO:DY:color=blue
(4GG/	(4..dd/	12b\L	mf	1r	.	.	2D/	O-	p	4d^/	no-	.	1r	.	.	4GG/	-la-	mf	[1d/	-la-	mf	4.b/	-la-	mf	4.dd\	-la-	mf
.	.	12d\	.	.	.	.	.	.	.	.	.	.	.	.	.	.	.	.	.	.	.	.	.	.	.	.	.
!	!	!	!	!	!	!	!	!	!	!	!	!	!	!	!	!	!	!LO:HP:color=blue	!	!	!LO:HP:color=blue	!	!	!LO:HP:color=red	!	!	!LO:HP:color=blue
.	.	12g\J	.	.	.	.	.	.	.	.	.	.	.	.	.	.	.	>	.	.	>	.	.	>	.	.	>
!	!	!	!LO:HP:t=dimi:color=blue	!	!	!	!	!	!	!	!	!	!	!	!	!	!	!	!	!	!	!	!	!	!	!	!
4AA/	.	12f#\L	>	.	.	.	.	.	.	4d/	-bis.	.	.	.	.	4AA/	-trix	.	.	.	.	.	.	.	.	.	.
.	.	12d\	.	.	.	.	.	.	.	.	.	.	.	.	.	.	.	.	.	.	.	.	.	.	.	.	.
.	.	.	.	.	.	.	.	.	.	.	.	.	.	.	.	.	.	.	.	.	.	8a/	-trix	.	8cc\	-trix	.
.	.	12f#\J	.	.	.	.	.	.	.	.	.	.	.	.	.	.	.	.	.	.	.	.	.	.	.	.	.
.	16cc/	.	.	.	.	.	.	.	.	.	.	.	.	.	.	.	.	.	.	.	.	.	.	.	.	.	.
!	!	!	!LO:DY:a:color=blue	!	!	!	!	!	!	!	!	!	!	!	!	!	!	!LO:DY:color=blue	!	!	!LO:DY:color=blue	!	!	!LO:DY:color=red	!	!	!LO:DY:color=blue
4BB/	4b/	12g\L	p	.	.	.	4.D/	-ra	.	2r	.	.	.	.	.	4BB/	af-	p	.	.	p	4g/	af-	p	4b\	af-	p
.	.	12d\	.	.	.	.	.	.	.	.	.	.	.	.	.	.	.	.	.	.	.	.	.	.	.	.	.
.	.	12g\J	.	.	.	.	.	.	.	.	.	.	.	.	.	.	.	.	.	.	.	.	.	.	.	.	.
!	!	!	!LO:HP:a:color=blue	!	!	!	!	!	!	!	!	!	!	!	!	!	!	!LO:HP:color=blue	!	!	!LO:DY:color=red	!	!	!LO:HP:color=blue	!	!	!LO:HP:color=blue
4D/	4a/	12f#\L	<	.	.	.	.	.	.	.	.	.	.	.	.	4D/	-flic-	<[	.	.	p	4d/	-flic-	<[	4a\	-flic-	<[
.	.	12d\	.	.	.	.	.	.	.	.	.	.	.	.	.	.	.	.	.	.	.	.	.	.	.	.	.
.	.	.	.	.	.	.	8D/	pro	.	.	.	.	.	.	.	.	.	.	.	.	.	.	.	.	.	.	.
.	.	12f#\J	.	.	.	.	.	.	.	.	.	.	.	.	.	.	.	.	.	.	.	.	.	.	.	.	.
=6	=6	=6	=6	=6	=6	=6	=6	=6	=6	=6	=6	=6	=6	=6	=6	=6	=6	=6	=6	=6	=6	=6	=6	=6	=6	=6	=6
*	*	*	*	*2\right	*	*	*	*	*	*	*	*	*	*	*	*	*	*	*	*	*	*	*	*	*	*	*
!	!	!	!LO:HP:a:color=blue	!	!	!LO:DY:b:rj:color=red	!LO:ART:color=red	!	!	!	!	!	!	!	!	!	!	!LO:HP:color=blue	!	!	!	!	!	!LO:HP:color=blue	!	!	!LO:HP:color=blue
4G\	4g/	12e\L	[ >	2D\	O-	p	4D^>/	no-	.	1r	.	.	1r	.	.	(>4G\	-to-	>	2d\]	.	p	2e/	-to-	>	(4g/	-to-	>]
.	.	12d\	.	.	.	.	.	.	.	.	.	.	.	.	.	.	.	.	.	.	.	.	.	.	.	.	.
.	.	12e\J	]]	.	.	.	.	.	.	.	.	.	.	.	.	.	.	.	.	.	.	.	.	.	.	.	.
4BB/	4b/	12g\L	.	.	.	.	4D/	-bis,	.	.	.	.	.	.	.	4BB/)	.	.	.	.	.	.	.	.	4b/)	.	.
.	.	12d\	.	.	.	.	.	.	.	.	.	.	.	.	.	.	.	.	.	.	.	.	.	.	.	.	.
.	.	12g\J	.	.	.	.	.	.	.	.	.	.	.	.	.	.	.	]	.	.	.	.	.	.	.	.	.
*2\right	*	*	*	*	*	*	*	*	*	*	*	*	*	*	*	*	*	*	*	*	*	*	*	*	*	*	*
!	!LO:TX:t=P:problem:mixed beam	!	!	!	!	!	!	!	!	!	!	!	!	!	!	!	!	!	!	!	!	!	!	!	!	!	!
2D\)	2a/	12f#\L	.	4.D\	-ra	.	2r	.	.	.	.	.	.	.	.	4D/	-rum,	.	4d\	-trix,	.	4f#/	-rum,	]	4a/	-rum,	.
.	.	12d\	.	.	.	.	.	.	.	.	.	.	.	.	.	.	.	.	.	.	.	.	.	.	.	.	.
.	.	12A</J	.	.	.	.	.	.	.	.	.	.	.	.	.	.	.	.	.	.	.	.	.	.	.	.	.
!	!LO:TX:t=P:problem:mixed beam	!	!	!	!	!	!	!	!	!	!	!	!	!	!	!	!	!	!	!	!	!	!	!	!	!	!
.	.	12F#</L	.	.	.	.	.	.	.	.	.	.	.	.	.	4r	.	.	4r	.	.	4r	.	.	4r	.	.
.	.	12A</	.	.	.	.	.	.	.	.	.	.	.	.	.	.	.	.	.	.	.	.	.	.	.	.	.
.	.	.	.	8D\	pro	.	.	.	.	.	.	.	.	.	.	.	.	.	.	.	.	.	.	.	.	.	.
.	.	12d\J)	.	.	.	.	.	.	.	.	.	.	.	.	.	.	.	.	.	.	.	.	.	.	.	.	.
=7	=7	=7	=7	=7	=7	=7	=7	=7	=7	=7	=7	=7	=7	=7	=7	=7	=7	=7	=7	=7	=7	=7	=7	=7	=7	=7	=7
!	!LO:TX:t=P:problem:mixed beam	!	!	!LO:ART:color=red	!	!	!	!	!	!	!	!	!	!	!LO:DY:rj:color=red	!	!	!	!	!	!	!	!	!	!	!	!
(<2D\ 2DD\	4b/	12f#\L	.	4D^\	no-	.	1r	.	.	1r	.	.	2d/	o-	p	2D\	au-	.	4r	.	.	2f#/	au-	.	4r	.	.
.	.	12B</	.	.	.	.	.	.	.	.	.	.	.	.	.	.	.	.	.	.	.	.	.	.	.	.	.
.	.	12f#\J	.	.	.	.	.	.	.	.	.	.	.	.	.	.	.	.	.	.	.	.	.	.	.	.	.
!	!LO:TX:t=P:problem:mixed beam	!	!	!	!	!	!	!	!	!	!	!	!	!	!	!	!	!	!	!	!	!	!	!	!	!	!
.	8.b/L	12b\L	.	4D\	-bis,	.	.	.	.	.	.	.	.	.	.	.	.	.	4B\	au-	.	.	.	.	4b\	au-	.
.	.	12f#\	.	.	.	.	.	.	.	.	.	.	.	.	.	.	.	.	.	.	.	.	.	.	.	.	.
.	.	12B</J	.	.	.	.	.	.	.	.	.	.	.	.	.	.	.	.	.	.	.	.	.	.	.	.	.
.	16b/Jk	.	.	.	.	.	.	.	.	.	.	.	.	.	.	.	.	.	.	.	.	.	.	.	.	.	.
!	!LO:TX:t=P:problem:mixed beam	!	!	!	!	!	!	!	!	!	!	!	!	!	!	!LO:TX:t=cre-scen-do:color=blue:ext2=cd:problem:dynamics with extension lines	!	!LO:HP:color=blue:t=cre-scen-do	!	!	!	!	!	!	!LO:TX:t=cre-scen-do:color=blue:ext2=cd:problem:dynamics with extension lines	!	!LO:HP:color=blue:t=cre-scen-do
2E\ 2EE\	4..b/	12g\L	.	2r	.	.	.	.	.	.	.	.	4.d/	-ra	.	4..E\	-xi-	<	4..B\	-xi-	.	4..g/	-xi-	.	4..b\	-xi-	<
.	.	12B</	.	.	.	.	.	.	.	.	.	.	.	.	.	.	.	.	.	.	.	.	.	.	.	.	.
!	!LO:TX:b:t=cre-scen-do.:ext2=cd:problem:dynamics with extension lines	!	!LO:HP:t=cre-scen-do.	!	!	!	!	!	!	!	!	!	!	!	!	!	!	!	!	!	!	!	!	!	!	!	!
.	.	12e\J	<	.	.	.	.	.	.	.	.	.	.	.	.	.	.	.	.	.	.	.	.	.	.	.	.
!	!LO:TX:t=P:problem:mixed beam	!	!	!	!	!	!	!	!	!	!	!	!	!	!	!	!	!	!	!	!	!	!	!	!	!	!
.	.	12g\L	.	.	.	.	.	.	.	.	.	.	.	.	.	.	.	.	.	.	.	.	.	.	.	.	.
.	.	12e\	.	.	.	.	.	.	.	.	.	.	.	.	.	.	.	.	.	.	.	.	.	.	.	.	.
.	.	.	.	.	.	.	.	.	.	.	.	.	8d/	pro	.	.	.	.	.	.	.	.	.	.	.	.	.
.	.	12B</J	.	.	.	.	.	.	.	.	.	.	.	.	.	.	.	.	.	.	.	.	.	.	.	.	.
.	16b/	.	.	.	.	.	.	.	.	.	.	.	.	.	.	16E\	-lium	.	16B\	-lium	.	16g/	-lium	.	16b\	-lium	.
=8	=8	=8	=8	=8	=8	=8	=8	=8	=8	=8	=8	=8	=8	=8	=8	=8	=8	=8	=8	=8	=8	=8	=8	=8	=8	=8	=8
!	!	!	!	!	!	!	!	!	!	!	!	!LO:DY:rj:color=red	!LO:ART:color=red	!	!	!	!	!	!	!	!	!	!	!	!	!	!
2E#X\ 2EE#X\	4dd/	12g#X\L	.	1r	.	.	1r	.	.	2d/	O-	p	4d^>/	no-	.	4.E#X\	Chris-	.	(4B\	Chris-	.	4..g#X/	Chris-	.	(4dd\	Chris-	.
.	.	12d\	.	.	.	.	.	.	.	.	.	.	.	.	.	.	.	.	.	.	.	.	.	.	.	.	.
.	.	[12g#\J	.	.	.	.	.	.	.	.	.	.	.	.	.	.	.	.	.	.	.	.	.	.	.	.	.
.	8.cc#X/L	12g#\L]	.	.	.	.	.	.	.	.	.	.	4d/	-bis,	.	.	.	.	8.c#X\)	.	.	.	.	.	8.cc#X\)	.	.
.	.	12g#\	.	.	.	.	.	.	.	.	.	.	.	.	.	.	.	.	.	.	.	.	.	.	.	.	.
.	.	.	.	.	.	.	.	.	.	.	.	.	.	.	.	8E#\	-tia-	.	.	.	.	.	.	.	.	.	.
.	.	12d\J	.	.	.	.	.	.	.	.	.	.	.	.	.	.	.	.	.	.	.	.	.	.	.	.	.
.	16b/Jk	.	.	.	.	.	.	.	.	.	.	.	.	.	.	.	.	.	16d\	-tia-	.	16g#/	-tia-	.	16b\	-tia-	.
4F#\ 4FF#\	4b/	12a\L	.	.	.	.	.	.	.	4.d/	-ra	.	2r	.	.	4F#\	-no-	.	4d\	-no-	.	4a/	-no-	.	4b\	-no-	[[
.	.	12d\	.	.	.	.	.	.	.	.	.	.	.	.	.	.	.	[	.	.	.	.	.	.	.	.	.
.	.	12f#\J	.	.	.	.	.	.	.	.	.	.	.	.	.	.	.	.	.	.	.	.	.	.	.	.	.
!	!	!LO:ACC:color=red	!	!	!	!	!	!	!	!	!	!	!	!	!	!	!	!	!	!	!	!	!	!	!	!	!
4En\ 4EEn\)	4b/	12gn\L	[	.	.	.	.	.	.	.	.	.	.	.	.	4En\	-rum,	.	4e\	-rum,	.	8gn/	-rum,	.	8b\	-rum,	.
.	.	12e\	.	.	.	.	.	.	.	.	.	.	.	.	.	.	.	.	.	.	.	.	.	.	.	.	.
.	.	.	.	.	.	.	.	.	.	8d/	pro	.	.	.	.	.	.	.	.	.	.	8r	.	.	8r	.	.
.	.	12g\J	.	.	.	.	.	.	.	.	.	.	.	.	.	.	.	.	.	.	.	.	.	.	.	.	.
!!LO:PB:g=original
=9	=9	=9	=9	=9	=9	=9	=9	=9	=9	=9	=9	=9	=9	=9	=9	=9	=9	=9	=9	=9	=9	=9	=9	=9	=9	=9	=9
!	!	!	!	!	!	!	!	!	!LO:DY:rj:b:color=red	!	!	!LO:DY:rj:color=red	!	!	!	!	!	!	!	!	!	!	!	!	!	!	!
!	!	!	!	!	!	!	!	!	!	!	!	!LO:HP:color=red	!	!	!	!	!	!	!	!	!	!	!	!	!	!	!LO:DY:color=red
(4D/ 4DD/	(4..ff#/	12f#\L	f	1r	.	.	2D/	O-	mp	4d/	no-	f >	1r	.	.	(4D\	o-	.	(4f#\	o-	.	(4f#/	o-	.	(4..ff#\	o-	f
.	.	12b\	.	.	.	.	.	.	.	.	.	.	.	.	.	.	.	.	.	.	.	.	.	.	.	.	.
.	.	12f#\J	.	.	.	.	.	.	.	.	.	.	.	.	.	.	.	.	.	.	.	.	.	.	.	.	.
4G/ 4GG/	.	12b\L	.	.	.	.	.	.	.	4d/	-bis.	.	.	.	.	4G\)	.	.	4B\)	.	.	4d/)	.	.	.	.	.
.	.	12d\	.	.	.	.	.	.	.	.	.	.	.	.	.	.	.	.	.	.	.	.	.	.	.	.	.
.	.	12b\J	.	.	.	.	.	.	.	.	.	.	.	.	.	.	.	.	.	.	.	.	.	.	.	.	.
.	16ee#X/	.	.	.	.	.	.	.	.	.	.	.	.	.	.	.	.	.	.	.	.	.	.	.	16ee#X\)	.	.
4F#/ 4FF#/	4ff#/	12f#\L	.	.	.	.	4.D/	-ra	.	2r	.	]	.	.	.	4F#\	-ra	.	4d\	-ra	.	4B/	-ra	.	4ff#\	-ra	.
.	.	12dd\	.	.	.	.	.	.	.	.	.	.	.	.	.	.	.	.	.	.	.	.	.	.	.	.	.
.	.	12b\J	.	.	.	.	.	.	.	.	.	.	.	.	.	.	.	.	.	.	.	.	.	.	.	.	.
4B\ 4BB\)	4dd/	12f#\L	.	.	.	.	.	.	.	.	.	.	.	.	.	4BB/	pro	.	4d\	pro	.	4f#/	pro	.	4dd\	pro	.
.	.	12d\	.	.	.	.	.	.	.	.	.	.	.	.	.	.	.	.	.	.	.	.	.	.	.	.	.
!	!	!	!	!	!	!	!	!	!LO:HP:color=blue	!	!	!	!	!	!	!	!	!	!	!	!	!	!	!	!	!	!
.	.	.	.	.	.	.	8D/	pro	>	.	.	.	.	.	.	.	.	.	.	.	.	.	.	.	.	.	.
.	.	12f#\J	.	.	.	.	.	.	.	.	.	.	.	.	.	.	.	.	.	.	.	.	.	.	.	.	.
=10	=10	=10	=10	=10	=10	=10	=10	=10	=10	=10	=10	=10	=10	=10	=10	=10	=10	=10	=10	=10	=10	=10	=10	=10	=10	=10	=10
*^	*	*	*	*	*	*	*	*	*	*	*	*	*	*	*	*	*	*	*	*	*	*	*	*	*	*	*
!	!	!	!	!	!	!	!LO:DY:rj:color=red	!	!	!	!	!	!	!	!	!	!	!	!	!	!	!LO:HP:color=blue	!	!	!	!	!	!LO:HP:color=blue
(<2DD\	1D\	4..b/	12d\L	>	2D\	O-	p	4D/	no-	.	1r	.	.	1r	.	.	2D/	no-	.	(4..d\	no-	>	2f#/	no-	.	(4..b/	no-	>
.	.	.	12f#\	.	.	.	.	.	.	.	.	.	.	.	.	.	.	.	.	.	.	.	.	.	.	.	.	.
.	.	.	12d\J	.	.	.	.	.	.	.	.	.	.	.	.	.	.	.	.	.	.	.	.	.	.	.	.	.
.	.	.	12f#\L	.	.	.	.	4D/	-bis,	]	.	.	.	.	.	.	.	.	.	.	.	.	.	.	.	.	.	.
.	.	.	12d\	.	.	.	.	.	.	.	.	.	.	.	.	.	.	.	.	.	.	.	.	.	.	.	.	.
.	.	.	12c\J	.	.	.	.	.	.	.	.	.	.	.	.	.	.	.	.	.	.	.	.	.	.	.	.	.
.	.	16a/	.	.	.	.	.	.	.	.	.	.	.	.	.	.	.	.	.	16c\)	.	.	.	.	.	16a/)	.	.
!	!	!	!	!	!	!	!LO:HP:color=red	!	!	!	!	!	!	!	!	!	!	!	!	!	!	!	!	!	!	!	!	!
4GG\)	.	4g/)	12B\L	.	4.D\	-ra	>	2r	.	.	.	.	.	.	.	.	4G\	-bis.	.	4B\	-bis.	]	4g/	-bis.	.	4g/	-bis.	]
.	.	.	12d\	.	.	.	.	.	.	.	.	.	.	.	.	.	.	.	.	.	.	.	.	.	.	.	.	.
.	.	.	12g\J	.	.	.	.	.	.	.	.	.	.	.	.	.	.	.	.	.	.	.	.	.	.	.	.	.
4rEE	.	4r	12d\L	.	.	.	.	.	.	.	.	.	.	.	.	.	4r	.	.	4r	.	.	4r	.	.	4r	.	.
.	.	.	12g\	.	.	.	.	.	.	.	.	.	.	.	.	.	.	.	.	.	.	.	.	.	.	.	.	.
.	.	.	.	]	8D\	pro	]]	.	.	.	.	.	.	.	.	.	.	.	.	.	.	.	.	.	.	.	.	.
!	!	!	!	!LO:DY:t=p.	!	!	!	!	!	!	!	!	!	!	!	!	!	!	!	!	!	!	!	!	!	!	!	!
.	.	.	12d\J	p	.	.	.	.	.	.	.	.	.	.	.	.	.	.	.	.	.	.	.	.	.	.	.	.
*v	*v	*	*	*	*	*	*	*	*	*	*	*	*	*	*	*	*	*	*	*	*	*	*	*	*	*	*	*
=11	=11	=11	=11	=11	=11	=11	=11	=11	=11	=11	=11	=11	=11	=11	=11	=11	=11	=11	=11	=11	=11	=11	=11	=11	=11	=11	=11
!	!LO:TX:t=P:problem:mixed beam	!	!	!	!	!	!	!	!	!	!	!	!	!	!LO:DY:rj:color=red	!	!	!LO:DY:rj:color=blue	!	!	!	!	!	!LO:DY:rj:color=red	!	!	!LO:DY:rj:color=blue
(<2D\	4a/	12f#\L	]	4D\	no-	.	1r	.	.	1r	.	.	2d/	o-	p	2D/	Re-	p	2r	.	.	(4f#/	Re-	p	4a/	Re-	p
.	.	12d\	.	.	.	.	.	.	.	.	.	.	.	.	.	.	.	.	.	.	.	.	.	.	.	.	.
.	.	12A</J	.	.	.	.	.	.	.	.	.	.	.	.	.	.	.	.	.	.	.	.	.	.	.	.	.
!	!LO:TX:t=P:problem:mixed beam	!	!	!	!	!	!	!	!	!	!	!	!	!	!	!	!	!	!	!	!	!	!	!	!	!	!
.	8.a/L	12fn\L	.	4D\	-bis,	.	.	.	.	.	.	.	.	.	.	.	.	.	.	.	.	4fn/)	.	.	8.a/	-gi-	.
.	.	12d\	.	.	.	.	.	.	.	.	.	.	.	.	.	.	.	.	.	.	.	.	.	.	.	.	.
.	.	12A</J	.	.	.	.	.	.	.	.	.	.	.	.	.	.	.	.	.	.	.	.	.	.	.	.	.
.	16a/Jk	.	.	.	.	.	.	.	.	.	.	.	.	.	.	.	.	.	.	.	.	.	.	.	16a/	-na	.
!	!LO:TX:t=P:problem:mixed beam	!	!	!	!	!	!	!	!	!	!	!	!	!	!	!	!	!	!	!	!LO:DY:rj:color=red	!	!	!	!	!	!
4AA\	4.a/	12e\L	.	2r	.	.	.	.	.	.	.	.	4.d/	-ra	.	4AA/	-gi-	.	4d\	Re-	p	4e/	-gi-	.	(2a/	an-	.
.	.	12d\	.	.	.	.	.	.	.	.	.	.	.	.	.	.	.	.	.	.	.	.	.	.	.	.	.
.	.	12A</J	.	.	.	.	.	.	.	.	.	.	.	.	.	.	.	.	.	.	.	.	.	.	.	.	.
!	!	!LO:ACC:color=blue	!	!	!	!	!	!	!	!	!	!	!	!	!	!	!	!	!	!	!	!	!	!	!	!	!
4Cn\	.	12f#X\L	.	.	.	.	.	.	.	.	.	.	.	.	.	4Cn/	-na	.	8.d\	-gi-	.	4f#X/	-na	.	.	.	.
.	.	12d\	.	.	.	.	.	.	.	.	.	.	.	.	.	.	.	.	.	.	.	.	.	.	.	.	.
.	8a/	.	.	.	.	.	.	.	.	.	.	.	8d/	pro	.	.	.	.	.	.	.	.	.	.	.	.	.
.	.	12f#\J	.	.	.	.	.	.	.	.	.	.	.	.	.	.	.	.	.	.	.	.	.	.	.	.	.
.	.	.	.	.	.	.	.	.	.	.	.	.	.	.	.	.	.	.	16d\	-na	.	.	.	.	.	.	.
=12	=12	=12	=12	=12	=12	=12	=12	=12	=12	=12	=12	=12	=12	=12	=12	=12	=12	=12	=12	=12	=12	=12	=12	=12	=12	=12	=12
*^	*	*	*	*	*	*	*	*	*	*	*	*	*	*	*	*	*	*	*	*	*	*	*	*	*	*	*
*	*	*	*	*^	*	*	*	*	*	*	*	*	*	*	*	*	*	*	*	*	*	*	*	*	*	*	*	*
!	!	!	!	!	!LO:HP:a	!	!	!	!	!	!	!	!	!LO:DY:rj:color=red	!	!	!	!	!	!	!	!	!LO:HP:color=blue	!	!	!	!	!	!LO:HP:color=blue
1D/	4BB\	(4g/	12e\L	<	<	1r	.	.	1r	.	.	2d/	O-	p	4d/	no-	.	4BB/	an-	.	4d\	an-	<	4g/	an-	.	4g/)	.	<
!	!	!	!	!	!	!	!	!	!	!	!	!	!	!LO:HP:color=red	!	!	!	!	!	!	!	!	!	!	!	!	!	!	!
.	.	.	12d\	.	.	.	.	.	.	.	.	.	.	<	.	.	.	.	.	.	.	.	.	.	.	.	.	.	.
.	.	.	12e\J	.	.	.	.	.	.	.	.	.	.	.	.	.	.	.	.	.	.	.	.	.	.	.	.	.	.
.	4AA\	4a/	12f#\L	.	.	.	.	.	.	.	.	.	.	.	4d/	-bis,	.	4D\	-ge-	.	(8c\L	-ge-	.	4d/	-ge-	.	4a/	-ge-	.
.	.	.	12d\	.	.	.	.	.	.	.	.	.	.	.	.	.	.	.	.	.	.	.	.	.	.	.	.	.	.
.	.	.	.	.	.	.	.	.	.	.	.	.	.	.	.	.	.	.	.	.	8B\J)	.	[	.	.	.	.	.	.
.	.	.	12f#\J	[	[	.	.	.	.	.	.	.	.	[	.	.	.	.	.	.	.	.	.	.	.	.	.	.	[
!	!	!	!	!	!LO:HP:a	!	!	!	!	!	!	!	!	!	!	!	!	!	!	!	!	!	!LO:HP:color=blue	!	!	!	!	!	!LO:HP:color=blue
.	4FF#\	4cc/	12a\L	>	>	.	.	.	.	.	.	4.d/	-ra	.	2r	.	.	4F#\	-lo-	.	4A\	-lo-	>	4d/	-lo-	.	4cc\	-lo-	>
!	!	!	!	!	!	!	!	!	!	!	!	!	!	!LO:HP:color=red	!	!	!	!	!	!	!	!	!	!	!	!	!	!	!
.	.	.	12d\	.	.	.	.	.	.	.	.	.	.	>	.	.	.	.	.	.	.	.	.	.	.	.	.	.	.
.	.	.	12a\J	.	.	.	.	.	.	.	.	.	.	.	.	.	.	.	.	.	.	.	.	.	.	.	.	.	.
.	8GG\)	8b/)	12g\L	.	.	.	.	.	.	.	.	.	.	.	.	.	.	8G\	-rum,	.	8B'\	-rum,	]	8d/	-rum,	.	8b\	-rum,	.
.	.	.	12d\	.	.	.	.	.	.	.	.	.	.	.	.	.	.	.	.	.	.	.	.	.	.	.	.	.	.
.	8r	8r	.	]	]	.	.	.	.	.	.	8d/	pro	]]	.	.	.	8r	.	.	8r	.	.	8r	.	.	8r	.	]
.	.	.	12g\J	.	.	.	.	.	.	.	.	.	.	.	.	.	.	.	.	.	.	.	.	.	.	.	.	.	.
*	*	*	*	*v	*v	*	*	*	*	*	*	*	*	*	*	*	*	*	*	*	*	*	*	*	*	*	*	*	*
*v	*v	*	*	*	*	*	*	*	*	*	*	*	*	*	*	*	*	*	*	*	*	*	*	*	*	*	*	*
!!LO:PB:g=original
=13	=13	=13	=13	=13	=13	=13	=13	=13	=13	=13	=13	=13	=13	=13	=13	=13	=13	=13	=13	=13	=13	=13	=13	=13	=13	=13	=13
!	!	!	!	!	!	!	!	!	!LO:DY:b:rj:color=red	!	!	!	!	!	!	!	!	!	!	!	!	!	!	!	!	!	!
(<4D\	4b/	12f#\L	]	1r	.	.	2D/	O-	p	4d/	no-	.	1r	.	.	(4D\	Re-	.	2r	.	.	(4f#/	Re-	.	4b\	Re-	.
.	.	12B\	.	.	.	.	.	.	.	.	.	.	.	.	.	.	.	.	.	.	.	.	.	.	.	.	.
.	.	12f#\J	.	.	.	.	.	.	.	.	.	.	.	.	.	.	.	.	.	.	.	.	.	.	.	.	.
4E\	8.b/L	12g\L	.	.	.	.	.	.	.	4d/	-bis.	.	.	.	.	4E\)	.	.	.	.	.	4g/)	.	.	8.b\	-gi-	.
.	.	12B\	.	.	.	.	.	.	.	.	.	.	.	.	.	.	.	.	.	.	.	.	.	.	.	.	.
.	.	12g\J	.	.	.	.	.	.	.	.	.	.	.	.	.	.	.	.	.	.	.	.	.	.	.	.	.
!	!	!	!LO:HP:a:color=blue	!	!	!	!	!	!	!	!	!	!	!	!	!	!	!	!	!	!	!	!	!	!	!	!
.	16b/Jk	.	<	.	.	.	.	.	.	.	.	.	.	.	.	.	.	.	.	.	.	.	.	.	16b\	-na	.
*	*	*	*	*	*	*	*	*	*	*	*	*	*	*	*	*	*	*	*	*	*	*	*	*	*2\right	*	*
!	!	!	!	!	!	!	!	!	!	!	!	!	!	!	!	!	!	!LO:HP:color=blue	!	!	!	!	!	!	!	!	!LO:HP:color=blue
4E#X\	2b/	12g#X\L	.	.	.	.	4.D/	-ra	.	2r	.	.	.	.	.	4E#X\	-gi-	<	4d\	Re-	.	4g#X/	-gi-	.	[2b\	Pa-	<
.	.	12d\	.	.	.	.	.	.	.	.	.	.	.	.	.	.	.	.	.	.	.	.	.	.	.	.	.
.	.	12B\J	.	.	.	.	.	.	.	.	.	.	.	.	.	.	.	.	.	.	.	.	.	.	.	.	.
4F#\	.	12d\L	.	.	.	.	.	.	.	.	.	.	.	.	.	4F#\	-na	.	8.d\	-gi-	.	4f#/	-na	.	.	.	.
.	.	12f#\	.	.	.	.	.	.	.	.	.	.	.	.	.	.	.	.	.	.	.	.	.	.	.	.	.
.	.	.	.	.	.	.	8D/	pro	.	.	.	.	.	.	.	.	.	.	.	.	.	.	.	.	.	.	.
.	.	12B\J	.	.	.	.	.	.	.	.	.	.	.	.	.	.	.	.	.	.	.	.	.	.	.	.	.
.	.	.	.	.	.	.	.	.	.	.	.	.	.	.	.	.	.	[	16d\	-na	.	.	.	.	.	.	.
=14	=14	=14	=14	=14	=14	=14	=14	=14	=14	=14	=14	=14	=14	=14	=14	=14	=14	=14	=14	=14	=14	=14	=14	=14	=14	=14	=14
*	*	*	*^	*	*	*	*	*	*	*	*	*	*	*	*	*	*	*	*	*	*	*	*	*	*	*	*
!	!	!	!	!	!	!	!LO:DY:rj:color=red	!	!	!	!	!	!	!	!	!	!	!	!	!	!	!	!	!	!	!	!	!
4G\	4b/	12d\L	.	.	2D\	O-	p	4D/	no-	.	1r	.	.	1r	.	.	4G\	Pa-	.	4d\	Pat-	.	4fn/	Pat-	.	4b\]	.	.
.	.	12fn\	[	.	.	.	.	.	.	.	.	.	.	.	.	.	.	.	.	.	.	.	.	.	.	.	.	[
.	.	12b\J 12B\	.	.	.	.	.	.	.	.	.	.	.	.	.	.	.	.	.	.	.	.	.	.	.	.	.	.
!	!	!	!	!	!	!	!	!	!	!	!	!	!	!	!	!	!	!	!LO:HP:color=blue	!	!	!	!	!	!	!	!	!
4G#X\	4ee/	12e\L	.	.	.	.	.	4D/	-bis,	.	.	.	.	.	.	.	4G#X\	-triar-	>	4B\	-riar-	.	4e/	-riar-	.	4ee\	-triar-	.
!	!	!	!LO:HP:a:color=blue	!	!	!	!	!	!	!	!	!	!	!	!	!	!	!	!	!	!	!	!	!	!	!	!	!
.	.	12b\	>	.	.	.	.	.	.	.	.	.	.	.	.	.	.	.	.	.	.	.	.	.	.	.	.	.
!	!	!	!	!	!	!	!	!	!	!	!	!	!	!	!	!	!	!	!	!	!	!	!	!	!	!	!	!LO:HP:color=blue
.	.	12e\J	.	.	.	.	.	.	.	.	.	.	.	.	.	.	.	.	.	.	.	.	.	.	.	.	.	>
4A\	4.dd/	12f\L	.	.	4.D\	-ra	.	2r	.	.	.	.	.	.	.	.	4A\	-cha-	.	4.d\	-cha-	.	4f/	-cha-	.	4.dd\	-cha-	.
!	!	!	!	!LO:DY:color=red	!	!	!	!	!	!	!	!	!	!	!	!	!	!	!	!	!	!	!	!	!	!	!	!
.	.	12a\	.	f	.	.	.	.	.	.	.	.	.	.	.	.	.	.	.	.	.	.	.	.	.	.	.	.
.	.	12d\J	.	.	.	.	.	.	.	.	.	.	.	.	.	.	.	.	.	.	.	.	.	.	.	.	.	.
8D\)	.	12f\L	]	.	.	.	.	.	.	.	.	.	.	.	.	.	8D\	-rum,	]	.	.	.	4f#X/	-rum,	.	.	.	.
.	.	12a\	.	.	.	.	.	.	.	.	.	.	.	.	.	.	.	.	.	.	.	.	.	.	.	.	.	.
8r	8cc/	.	.	.	8D\	pro	.	.	.	.	.	.	.	.	.	.	8r	.	.	8d\	-rum,	.	.	.	.	8cc\	-rum,	]]
.	.	12d\J	.	.	.	.	.	.	.	.	.	.	.	.	.	.	.	.	.	.	.	.	.	.	.	.	.	.
*	*	*	*v	*v	*	*	*	*	*	*	*	*	*	*	*	*	*	*	*	*	*	*	*	*	*	*	*	*
=15	=15	=15	=15	=15	=15	=15	=15	=15	=15	=15	=15	=15	=15	=15	=15	=15	=15	=15	=15	=15	=15	=15	=15	=15	=15	=15	=15
*^	*	*	*	*	*	*	*	*	*	*	*	*	*	*	*	*	*	*	*	*	*	*	*	*	*	*	*
!	!	!	!	!LO:DY:rj:a:color=blue	!	!	!	!	!	!	!	!	!	!	!	!	!	!	!LO:DY:rj:color=blue	!	!	!	!	!	!	!	!	!LO:DY:color=blue
!	!	!	!	!LO:HP:a:color=blue	!	!	!	!	!	!	!	!	!	!	!	!LO:HP:color=red	!	!	!	!LO:ART:color=red	!	!	!LO:ART:color=red	!	!LO:DY:rj:color=red	!	!	!LO:HP:color=blue
2.ryy	(4G\	4b/	12g\L	p <	4D\	no-	.	1r	.	.	1r	.	.	2d/	o-	<	(4G\	o-	p	[1d/^	o-	.	2g^>/	o-	p	(4b\	o-	p <
!	!	!	!	!	!	!	!	!	!	!	!	!	!	!	!	!	!	!	!LO:HP:color=blue	!	!	!	!	!	!	!	!	!
.	.	.	12d\	.	.	.	.	.	.	.	.	.	.	.	.	.	.	.	<	.	.	.	.	.	.	.	.	.
.	.	.	12g\J	.	.	.	.	.	.	.	.	.	.	.	.	.	.	.	.	.	.	.	.	.	.	.	.	.
.	4BB\	4dd/	12d\L	.	4D\	-bis,	.	.	.	.	.	.	.	.	.	.	4BB\)	.	.	.	.	.	.	.	.	4dd\)	.	.
.	.	.	12g\	[	.	.	.	.	.	.	.	.	.	.	.	.	.	.	.	.	.	.	.	.	.	.	.	[
.	.	.	12d\J	.	.	.	.	.	.	.	.	.	.	.	.	.	.	.	.	.	.	.	.	.	.	.	.	.
!	!	!	!	!LO:HP:a:color=blue	!	!	!	!	!	!	!	!	!	!	!	!LO:HP:color=red	!	!	!LO:HP:color=blue	!	!	!LO:HP:color=red	!	!	!LO:HP:color=red	!	!	!LO:HP:color=blue
.	2D\)	2a^^/	12g\L	>	2r	.	.	.	.	.	.	.	.	4.d/	-ra	[ >	(4.D\	-ra,	[ >	.	.	>	2f#/	-ra,	>]	2a/	-ra,	>
.	.	.	12f#\	.	.	.	.	.	.	.	.	.	.	.	.	.	.	.	.	.	.	.	.	.	.	.	.	.
.	.	.	12e\J	.	.	.	.	.	.	.	.	.	.	.	.	.	.	.	.	.	.	.	.	.	.	.	.	.
8.A/L	.	.	12f#\L	.	.	.	.	.	.	.	.	.	.	.	.	.	.	.	.	.	.	.	.	.	.	.	.	.
.	.	.	12d\	]	.	.	.	.	.	.	.	.	.	.	.	.	.	.	]	.	.	.	.	.	.	.	.	.
.	.	.	.	.	.	.	.	.	.	.	.	.	.	8d/	pro	]]	8E\)	.	.	.	.	.	.	.	.	.	.	]
.	.	.	12e\J	.	.	.	.	.	.	.	.	.	.	.	.	.	.	.	.	.	.	.	.	.	.	.	.	.
16G#X/Jk	.	.	.	.	.	.	.	.	.	.	.	.	.	.	.	.	.	.	.	.	.	.	.	.	.	.	.	.
=16	=16	=16	=16	=16	=16	=16	=16	=16	=16	=16	=16	=16	=16	=16	=16	=16	=16	=16	=16	=16	=16	=16	=16	=16	=16	=16	=16	=16
!	!	!	!	!LO:DY:rj:a:t=pp.:color=blue	!	!	!	!	!	!	!	!	!LO:DY:b:rj:color=red	!	!	!LO:DY:color=red	!	!	!LO:DY:color=blue	!	!	!	!	!	!LO:DY:color=red	!	!	!LO:DY:rj:color=blue
4A/	(4FFn\	(4a/	12fn\L	pp	1r	.	.	1r	.	.	2d/	O-	pp	4d/	no-	pp	(4Fn\	o-	pp	2.d\]	.	.	2.fn/	o-	pp	(4a/	o-	pp
.	.	.	12d\	.	.	.	.	.	.	.	.	.	.	.	.	.	.	.	.	.	.	.	.	.	.	.	.	.
.	.	.	12e\J	.	.	.	.	.	.	.	.	.	.	.	.	.	.	.	.	.	.	.	.	.	.	.	.	.
(2B/	4GG\	4b/	12f\L	.	.	.	.	.	.	.	.	.	.	4d/	-bis,	.	4G\)	.	.	.	.	.	.	.	.	4b/)	.	.
.	.	.	12d\	.	.	.	.	.	.	.	.	.	.	.	.	.	.	.	.	.	.	.	.	.	.	.	.	.
.	.	.	12e\J	.	.	.	.	.	.	.	.	.	.	.	.	.	.	.	.	.	.	.	.	.	.	.	.	.
.	4GG#X\	2dd^^/)	12f\L	.	.	.	.	.	.	.	4.d/	-ra	.	2r	.	.	4G#X\	-ra	.	.	.	.	.	.	.	2dd\	-ra,	.
.	.	.	(>12e\	.	.	.	.	.	.	.	.	.	.	.	.	.	.	.	.	.	.	.	.	.	.	.	.	.
.	.	.	12f\J	.	.	.	.	.	.	.	.	.	.	.	.	.	.	.	.	.	.	.	.	.	.	.	.	.
4c/)	4AA\	.	12f#X\L	.	.	.	.	.	.	.	.	.	.	.	.	.	4A\	pro	.	4c\	-ra,	.	4f#X/	-ra,	.	.	.	.
.	.	.	12e#X\	.	.	.	.	.	.	.	.	.	.	.	.	.	.	.	.	.	.	.	.	.	.	.	.	.
.	.	.	.	.	.	.	.	.	.	.	8d/	pro	.	.	.	.	.	.	.	.	.	.	.	.	.	.	.	.
.	.	.	12f#\J)	.	.	.	.	.	.	.	.	.	.	.	.	.	.	.	.	.	.	.	.	.	.	.	.	.
!!LO:PB:g=original
=17	=17	=17	=17	=17	=17	=17	=17	=17	=17	=17	=17	=17	=17	=17	=17	=17	=17	=17	=17	=17	=17	=17	=17	=17	=17	=17	=17	=17
*	*	*	*	*	*	*	*	*	*	*	*	*	*	*	*	*	*	*	*	*	*	*	*	*	*below	*	*	*
!	!	!	!	!LO:DY:a:color=blue	!	!	!	!	!	!	!	!	!	!	!	!	!	!	!LO:DY:rj:color=blue	!	!	!	!	!	!LO:DY:rj:color=blue	!	!	!LO:DY:rj:color=blue
!	!	!	!	!LO:HP:a:color=blue	!	!	!	!	!	!	!LO:ART:color=red	!	!	!	!	!	!	!	!LO:HP:color=blue	!	!	!	!	!	!LO:HP:color=blue	!	!	!LO:HP:color=blue
2d/	4AA#X\	(4dd/	12g\L	p <	1r	.	.	2D/	O-	.	4d^>/	no-	.	1r	.	.	(4A#X\	no-	p <	2d\	o-	.	(4g/	o-	p <	(4dd\	o-	p <
.	.	.	12f#\	.	.	.	.	.	.	.	.	.	.	.	.	.	.	.	.	.	.	.	.	.	.	.	.	.
.	.	.	12g\J	.	.	.	.	.	.	.	.	.	.	.	.	.	.	.	.	.	.	.	.	.	.	.	.	.
.	4BB\	4ee/	12g#X\L	[	.	.	.	.	.	.	4d/	-bis.	.	.	.	.	4B\)	.	.	.	.	.	4g#X/)	.	[	4ee\)	.	[
.	.	.	12f##X\	.	.	.	.	.	.	.	.	.	.	.	.	.	.	.	[	.	.	.	.	.	.	.	.	.
.	.	.	12g#\J	.	.	.	.	.	.	.	.	.	.	.	.	.	.	.	.	.	.	.	.	.	.	.	.	.
!	!	!	!LO:ACC:color=red	!LO:HP:a:color=blue	!	!	!	!	!	!	!	!	!	!	!	!	!	!	!	!	!	!	!	!	!LO:HP:color=blue	!	!	!LO:HP:color=blue
4F#/	4C\	4dd/	12an\L	>	.	.	.	4.D/	-ra	.	2r	.	.	.	.	.	4c\	-bis,	.	4d\	-ra	.	4a/	-ra	>	4dd\	-ra	>
!	!	!	!	!	!	!	!	!	!	!	!	!	!	!	!	!	!	!	!LO:HP:color=blue	!	!	!	!	!	!	!	!	!
.	.	.	12d\	.	.	.	.	.	.	.	.	.	.	.	.	.	.	.	>	.	.	.	.	.	.	.	.	.
.	.	.	12a\J	.	.	.	.	.	.	.	.	.	.	.	.	.	.	.	.	.	.	.	.	.	.	.	.	.
!	!	!LO:ACC:color=red	!LO:ACC:color=red	!	!	!	!	!	!	!	!	!	!	!	!	!	!	!	!	!	!	!	!	!	!	!	!	!
8.G/L	8.BB\L	8.gn/L	12gn\L	.	.	.	.	.	.	.	.	.	.	.	.	.	8.B\L	pro	.	8.d\L	pro	.	4d/	pro	]	4gn/	pro	]]
.	.	.	12d\	]	.	.	.	.	.	.	.	.	.	.	.	.	.	.	.	.	.	.	.	.	.	.	.	.
.	.	.	.	.	.	.	.	8D/	pro	.	.	.	.	.	.	.	.	.	.	.	.	.	.	.	.	.	.	.
.	.	.	12c\J	.	.	.	.	.	.	.	.	.	.	.	.	.	.	.	.	.	.	.	.	.	.	.	.	.
16F#/Jk	16AAn\Jk	16a/Jk	.	.	.	.	.	.	.	.	.	.	.	.	.	.	16An\Jk	.	]]	16c\Jk	.	.	.	.	.	.	.	.
=18	=18	=18	=18	=18	=18	=18	=18	=18	=18	=18	=18	=18	=18	=18	=18	=18	=18	=18	=18	=18	=18	=18	=18	=18	=18	=18	=18	=18
!	!	!	!	!	!	!	!LO:DY:rj:color=red	!	!	!	!	!	!	!	!	!	!	!	!	!	!	!	!	!	!	!	!	!
4G/	4GG\	4b/	12B\L	]	2D\	O-	p	4D/	no-	.	1r	.	.	1r	.	.	(4G\	no-	.	(4B\	no-	.	(4d/	no-	.	(4b/	no-	.
.	.	.	12d\	.	.	.	.	.	.	.	.	.	.	.	.	.	.	.	.	.	.	.	.	.	.	.	.	.
.	.	.	12g\J	.	.	.	.	.	.	.	.	.	.	.	.	.	.	.	.	.	.	.	.	.	.	.	.	.
4D/	4DD\	4a/	12c\L	.	.	.	.	4D/	-bis,	.	.	.	.	.	.	.	4D\)	.	.	4c\)	.	.	4f#/)	.	.	4a/)	.	.
.	.	.	12d\	.	.	.	.	.	.	.	.	.	.	.	.	.	.	.	.	.	.	.	.	.	.	.	.	.
.	.	.	12f#\J	.	.	.	.	.	.	.	.	.	.	.	.	.	.	.	.	.	.	.	.	.	.	.	.	.
!	!	!LO:TX:t=P:problem:mixed beam	!	!	!	!	!LO:HP:color=red	!	!	!	!	!	!	!	!	!	!	!	!	!	!	!	!	!	!	!	!	!
2GG\ 2GGG\)	2ryy	2g/)	12B\L	.	4.D\	-ra	>	2r	.	.	.	.	.	.	.	.	4GG/	-bis.	.	4B\	-bis.	.	4g/	-bis.	.	4g/	-bis.	.
.	.	.	12d\	.	.	.	.	.	.	.	.	.	.	.	.	.	.	.	.	.	.	.	.	.	.	.	.	.
.	.	.	12B\	.	.	.	.	.	.	.	.	.	.	.	.	.	.	.	.	.	.	.	.	.	.	.	.	.
.	.	.	12G</	.	.	.	.	.	.	.	.	.	.	.	.	.	4r	.	.	4r	.	.	4r	.	.	4r	.	.
.	.	.	12D</	.	.	.	.	.	.	.	.	.	.	.	.	.	.	.	.	.	.	.	.	.	.	.	.	.
.	.	.	.	.	8D\	pro	.	.	.	.	.	.	.	.	.	.	.	.	.	.	.	.	.	.	.	.	.	.
.	.	.	12BB</J	.	.	.	]	.	.	.	.	.	.	.	.	.	.	.	.	.	.	.	.	.	.	.	.	.
*v	*v	*	*	*	*	*	*	*	*	*	*	*	*	*	*	*	*	*	*	*	*	*	*	*	*	*	*	*
=19	=19	=19	=19	=19	=19	=19	=19	=19	=19	=19	=19	=19	=19	=19	=19	=19	=19	=19	=19	=19	=19	=19	=19	=19	=19	=19	=19
!	!	!	!LO:DY:rj:a:color=blue	!	!	!	!	!	!	!	!	!	!	!	!LO:DY:rj:color=blue	!	!	!	!	!	!	!	!	!LO:DY:rj:color=blue	!	!	!LO:DY:rj:color=blue
2D\	4a/	12f#\L	pp	4D\	no-	.	1r	.	.	1r	.	.	2d/	o-	pp	1r	.	.	2r	.	.	2f#X/	Re-	pp	4a/	Re-	pp
.	.	12d\	.	.	.	.	.	.	.	.	.	.	.	.	.	.	.	.	.	.	.	.	.	.	.	.	.
.	.	12e\J	.	.	.	.	.	.	.	.	.	.	.	.	.	.	.	.	.	.	.	.	.	.	.	.	.
.	8.a/L	12f#\L	.	4D\	-bis,	.	.	.	.	.	.	.	.	.	.	.	.	.	.	.	.	.	.	.	8.a/	-gi-	.
.	.	12e\	.	.	.	.	.	.	.	.	.	.	.	.	.	.	.	.	.	.	.	.	.	.	.	.	.
.	.	12f#\J	.	.	.	.	.	.	.	.	.	.	.	.	.	.	.	.	.	.	.	.	.	.	.	.	.
.	16a/Jk	.	.	.	.	.	.	.	.	.	.	.	.	.	.	.	.	.	.	.	.	.	.	.	16a/	-na	.
!	!	!	!	!	!	!	!	!	!	!	!	!	!	!	!	!	!	!	!	!	!LO:DY:b:rj:color=blue	!	!	!	!	!	!
2G\	2b-X/	12g\L	.	2r	.	.	.	.	.	.	.	.	4.d/	-ra	.	.	.	.	4d\	Re-	pp	4.g/	-gi-	.	[2b-X/	Pro-	.
.	.	12d\	.	.	.	.	.	.	.	.	.	.	.	.	.	.	.	.	.	.	.	.	.	.	.	.	.
.	.	12g\J	.	.	.	.	.	.	.	.	.	.	.	.	.	.	.	.	.	.	.	.	.	.	.	.	.
.	.	12B-X\L	.	.	.	.	.	.	.	.	.	.	.	.	.	.	.	.	8.d\	-gi-	.	.	.	.	.	.	.
.	.	12d\	.	.	.	.	.	.	.	.	.	.	.	.	.	.	.	.	.	.	.	.	.	.	.	.	.
.	.	.	.	.	.	.	.	.	.	.	.	.	8d/	pro	.	.	.	.	.	.	.	8g/	-na	.	.	.	.
.	.	12g\J	.	.	.	.	.	.	.	.	.	.	.	.	.	.	.	.	.	.	.	.	.	.	.	.	.
.	.	.	.	.	.	.	.	.	.	.	.	.	.	.	.	.	.	.	16d\	-na	.	.	.	.	.	.	.
=20	=20	=20	=20	=20	=20	=20	=20	=20	=20	=20	=20	=20	=20	=20	=20	=20	=20	=20	=20	=20	=20	=20	=20	=20	=20	=20	=20
*^	*	*	*	*	*	*	*	*	*	*	*	*	*	*	*	*	*	*	*	*	*	*	*	*	*	*	*
!	!	!	!	!	!	!	!	!	!	!	!	!	!LO:DY:rj:b:color=blue	!	!	!	!	!	!	!	!	!	!	!	!	!	!	!
2d/	2Fn\	4b-X/	12a-X\L	.	1r	.	.	1r	.	.	2d/	O-	pp	4d/	no-	.	1r	.	.	4..d\	pro-	.	2.a-X/	Pro-	.	4b-X/]	.	.
.	.	.	12fn\	.	.	.	.	.	.	.	.	.	.	.	.	.	.	.	.	.	.	.	.	.	.	.	.	.
.	.	.	12g\J	.	.	.	.	.	.	.	.	.	.	.	.	.	.	.	.	.	.	.	.	.	.	.	.	.
.	.	8.b-/L	12a-\L	.	.	.	.	.	.	.	.	.	.	4d/	-bis,	.	.	.	.	.	.	.	.	.	.	8.b-\L	-phe-	.
.	.	.	12g\	.	.	.	.	.	.	.	.	.	.	.	.	.	.	.	.	.	.	.	.	.	.	.	.	.
.	.	.	12f\J	.	.	.	.	.	.	.	.	.	.	.	.	.	.	.	.	.	.	.	.	.	.	.	.	.
.	.	16cc/Jk	.	.	.	.	.	.	.	.	.	.	.	.	.	.	.	.	.	16c\	-phe-	.	.	.	.	16cc\Jk	.	.
4d/	[2B-X\	2dd/	12r	.	.	.	.	.	.	.	4.d/	-ra	.	2r	.	.	.	.	.	4B-X\	-ta-	.	.	.	.	[2dd\	-ta-	.
.	.	.	12d\L	.	.	.	.	.	.	.	.	.	.	.	.	.	.	.	.	.	.	.	.	.	.	.	.	.
.	.	.	12e-X\	.	.	.	.	.	.	.	.	.	.	.	.	.	.	.	.	.	.	.	.	.	.	.	.	.
8.c/L	.	.	12f\	.	.	.	.	.	.	.	.	.	.	.	.	.	.	.	.	8Fn/	-rum	.	4a-/	-phe-	.	.	.	.
.	.	.	12e-\	.	.	.	.	.	.	.	.	.	.	.	.	.	.	.	.	.	.	.	.	.	.	.	.	.
.	.	.	.	.	.	.	.	.	.	.	8d/	pro	.	.	.	.	.	.	.	8r	.	.	.	.	.	.	.	.
.	.	.	12d\J	.	.	.	.	.	.	.	.	.	.	.	.	.	.	.	.	.	.	.	.	.	.	.	.	.
16B-X/Jk	.	.	.	.	.	.	.	.	.	.	.	.	.	.	.	.	.	.	.	.	.	.	.	.	.	.	.	.
!!LO:PB:g=original
=21	=21	=21	=21	=21	=21	=21	=21	=21	=21	=21	=21	=21	=21	=21	=21	=21	=21	=21	=21	=21	=21	=21	=21	=21	=21	=21	=21	=21
!	!LO:TX:t=P:problem:zakończenie ligatury na górze	!	!	!	!	!	!	!	!	!LO:DY:b:rj:color=red	!	!	!	!	!	!	!	!	!	!	!	!	!	!	!	!	!	!
2d/	2B-X\]	4dd/	12r	.	1r	.	.	2D/	O-	pp	4d/	no-	.	1r	.	.	2r	.	.	1r	.	.	2.a-X/	-ta-	.	4dd\]	.	.
.	.	.	12fn\L	.	.	.	.	.	.	.	.	.	.	.	.	.	.	.	.	.	.	.	.	.	.	.	.	.
.	.	.	12g\J	.	.	.	.	.	.	.	.	.	.	.	.	.	.	.	.	.	.	.	.	.	.	.	.	.
!	!	!	!LO:TX:b=2:t=cre-scen-do.:ext2=cd:problem:dynamics with extension lines	!LO:HP:b=2:t=cre-scen-do.	!	!	!	!	!	!	!	!	!	!	!	!	!	!	!	!	!	!	!	!	!	!	!	!
.	.	8.dd/L	12a-X\L	<	.	.	.	.	.	.	4d/	-bis.	.	.	.	.	.	.	.	.	.	.	.	.	.	8.dd\L	-rum,	.
.	.	.	12g\	.	.	.	.	.	.	.	.	.	.	.	.	.	.	.	.	.	.	.	.	.	.	.	.	.
.	.	.	12f\J	.	.	.	.	.	.	.	.	.	.	.	.	.	.	.	.	.	.	.	.	.	.	.	.	.
.	.	16ee-X/Jk	.	.	.	.	.	.	.	.	.	.	.	.	.	.	.	.	.	.	.	.	.	.	.	16ee-X\Jk	.	.
*	*	*	*	*	*	*	*	*	*	*	*	*	*	*	*	*	*	*color:red	*	*	*	*	*	*	*	*	*	*
!	!	!	!	!	!	!	!	!	!	!	!	!	!	!	!	!	!	!	!LO:DY:rj:color=red	!	!	!	!	!	!	!	!	!
2r	4B-X^\	2ffn/	12r	.	.	.	.	4.D/	-ra	.	2r	.	.	.	.	.	4B-X^\	O-	pp	.	.	.	.	.	.	[2ffn^\	o-	.
*	*	*	*	*	*	*	*	*	*	*	*	*	*	*	*	*	*	*color:auto	*	*	*	*	*	*	*	*	*	*
.	.	.	12d\L	.	.	.	.	.	.	.	.	.	.	.	.	.	.	.	.	.	.	.	.	.	.	.	.	.
!	!	!	!	!	!	!	!	!	!	!	!	!	!	!	!	!	!	!	!	!	!	!	!	!	!	!LO:TX:t=cre-scen-do.:ext2=cd:problem:dynamics with extension lines	!	!LO:HP:t=cre-scen-do.
.	.	.	12e-X\J	.	.	.	.	.	.	.	.	.	.	.	.	.	.	.	.	.	.	.	.	.	.	.	.	<
!	!	!	!	!	!	!	!	!	!	!	!	!	!	!	!	!	!LO:TX:a:t=cre-scen-do.:ext2=cd:problem:dynamics with extension lines	!	!LO:HP:a:t=cre-scen-do.	!	!	!	!	!	!	!	!	!
.	8.A\L	.	12f\L	.	.	.	.	.	.	.	.	.	.	.	.	.	8.A\	-ra	<	.	.	.	4a-/	-rum	.	.	.	.
.	.	.	12e-\	.	.	.	.	.	.	.	.	.	.	.	.	.	.	.	.	.	.	.	.	.	.	.	.	.
.	.	.	.	.	.	.	.	8D/	pro	.	.	.	.	.	.	.	.	.	.	.	.	.	.	.	.	.	.	.
.	.	.	12d\J	.	.	.	.	.	.	.	.	.	.	.	.	.	.	.	.	.	.	.	.	.	.	.	.	.
.	16B-\Jk	.	.	.	.	.	.	.	.	.	.	.	.	.	.	.	16B-\	pro	.	.	.	.	.	.	.	.	.	.
=22	=22	=22	=22	=22	=22	=22	=22	=22	=22	=22	=22	=22	=22	=22	=22	=22	=22	=22	=22	=22	=22	=22	=22	=22	=22	=22	=22	=22
!	!LO:ACC:color=blue	!	!	!	!	!	!LO:DY:b:rj:color=red	!	!	!	!	!	!	!	!	!	!	!	!	!LO:ART:color=red	!	!LO:DY:rj:color=red	!	!	!	!	!	!
2d/	2B-X\	4ffn^</	12r	.	2D\	O-	pp	4D/	no-	.	1r	.	.	1r	.	.	4.B-X\	no-	.	4fn^\	o-	pp	2r	.	.	4ff\]	.	.
.	.	.	12fn\L	.	.	.	.	.	.	.	.	.	.	.	.	.	.	.	.	.	.	.	.	.	.	.	.	.
.	.	.	12g\J	.	.	.	.	.	.	.	.	.	.	.	.	.	.	.	.	.	.	.	.	.	.	.	.	.
.	.	8.een/L	12a-X\L	.	.	.	.	4D/	-bis,	.	.	.	.	.	.	.	.	.	.	8.e\	-ra	.	.	.	.	8.een\	-ra	.
.	.	.	12g\	.	.	.	.	.	.	.	.	.	.	.	.	.	.	.	.	.	.	.	.	.	.	.	.	.
.	.	.	.	.	.	.	.	.	.	.	.	.	.	.	.	.	8B-\	-bis,	.	.	.	.	.	.	.	.	.	.
.	.	.	12f\J	.	.	.	.	.	.	.	.	.	.	.	.	.	.	.	.	.	.	.	.	.	.	.	.	.
!	!	!	!	!	!	!	!	!	!	!	!	!	!	!	!	!	!	!	!	!LO:TX:a:t=cre-scen-do.:ext2=cd:problem:dynamics with extension lines	!	!LO:HP:a:t=cre-scen-do.	!	!	!	!	!	!
.	.	16dd/Jk	.	.	.	.	.	.	.	.	.	.	.	.	.	.	.	.	.	16d\	pro	<	.	.	.	16dd\	pro	.
!	!	!	!	!	!	!	!	!	!	!	!	!	!	!	!	!	!	!	!	!	!	!	!LO:ART:color=red	!	!LO:DY:rj:color=red	!	!	!
!	!LO:ACC:color=blue	!	!	!	!	!	!LO:HP:color=red	!	!	!	!	!	!	!	!	!	!	!	!	!	!	!	!LO:TX:a:t=cre-scen-do.:ext2=cd:problem:dynamics with extension lines	!	!LO:HP:a:t=cre-scen-do.	!	!	!
2r	4Bn^\	2dd/	12r	.	4.D\	-ra	<	2r	.	.	.	.	.	.	.	.	4Bn\	o-	.	4.d\	no-	.	4dd^\	o-	pp <	4.dd\	no-	.
.	.	.	12d\L	.	.	.	.	.	.	.	.	.	.	.	.	.	.	.	.	.	.	.	.	.	.	.	.	.
.	.	.	12en\J	.	.	.	.	.	.	.	.	.	.	.	.	.	.	.	.	.	.	.	.	.	.	.	.	.
.	8.A#X\L	.	12f\L	.	.	.	.	.	.	.	.	.	.	.	.	.	8.A#X\	-ra	.	.	.	.	8.d/	-ra	.	.	.	.
.	.	.	12e\	.	.	.	.	.	.	.	.	.	.	.	.	.	.	.	.	.	.	.	.	.	.	.	.	.
.	.	.	.	.	8D\	pro	[[	.	.	.	.	.	.	.	.	.	.	.	.	8d\	-bis,	.	.	.	.	8dd\	-bis,	.
.	.	.	12d\J	.	.	.	.	.	.	.	.	.	.	.	.	.	.	.	.	.	.	.	.	.	.	.	.	.
.	16B\Jk	.	.	.	.	.	.	.	.	.	.	.	.	.	.	.	16B\	pro	.	.	.	.	16d/	pro	.	.	.	.
=23	=23	=23	=23	=23	=23	=23	=23	=23	=23	=23	=23	=23	=23	=23	=23	=23	=23	=23	=23	=23	=23	=23	=23	=23	=23	=23	=23	=23
*	*	*	*	*	*^	*	*	*	*	*	*	*	*	*	*	*	*	*	*	*	*	*	*	*	*	*	*	*
!	!	!	!	!	!	!	!	!LO:HP:color=red	!	!	!	!	!	!	!	!	!LO:DY:rj:color=red	!	!	!	!	!	!	!	!	!	!	!	!
2d/	2c\	4ffn/	12r	.	4D\	2ryy	no-	>	1r	.	.	1r	.	.	2d/	o-	p	4.c\	no-	.	4fn\	o-	.	4..d/	no-	.	4ffn\	o-	.
.	.	.	12fn\L	.	.	.	.	.	.	.	.	.	.	.	.	.	.	.	.	.	.	.	.	.	.	.	.	.	.
.	.	.	12g\J	.	.	.	.	.	.	.	.	.	.	.	.	.	.	.	.	.	.	.	.	.	.	.	.	.	.
!	!	!	!	!	!	!	!	!	!	!	!	!	!	!	!	!	!LO:HP:color=red	!	!	!	!	!	!	!	!	!	!	!	!
.	.	8.ee/L	12a-X\L	.	4D\	.	-bis,	]	.	.	.	.	.	.	.	.	<	.	.	.	8.e\	-ra	.	.	.	.	8.ee\	-ra	.
.	.	.	12g\	.	.	.	.	.	.	.	.	.	.	.	.	.	.	.	.	.	.	.	.	.	.	.	.	.	.
.	.	.	.	.	.	.	.	.	.	.	.	.	.	.	.	.	.	8c\	-bis,	.	.	.	.	.	.	.	.	.	.
.	.	.	12f\J	.	.	.	.	.	.	.	.	.	.	.	.	.	.	.	.	.	.	.	.	.	.	.	.	.	.
.	.	16dd/Jk	.	.	.	.	.	.	.	.	.	.	.	.	.	.	.	.	.	.	16d\	pro	.	16d/	-bis,	.	16dd\	pro	.
2r	4c^\	2dd/	12r	.	4rEE@	2rC	.	.	.	.	.	.	.	.	4.d/	-ra	.	4c\	o-	.	4.d\	no-	.	4dd\	o-	.	4.dd\	no-	.
.	.	.	12d\L	[	.	.	.	.	.	.	.	.	.	.	.	.	.	.	.	.	.	.	.	.	.	.	.	.	.
.	.	.	12e\J	.	.	.	.	.	.	.	.	.	.	.	.	.	.	.	.	[	.	.	.	.	.	.	.	.	[
!	!	!	!	!	!LO:ART:color=red	!	!	!LO:DY:rj:color=red	!	!	!	!	!	!	!	!	!	!	!	!	!	!	!	!	!	!	!	!	!
!	!	!	!	!	!LO:T:color=blue	!	!	!	!	!	!	!	!	!	!	!	!	!	!	!	!	!	!	!	!	!	!	!	!
.	8.B\L	.	12f\L	.	[<4D@^</	.	O-	mp	.	.	.	.	.	.	.	.	.	8.B\	-ra	.	.	.	.	8.d/	-ra	.	.	.	.
.	.	.	12e\	.	.	.	.	.	.	.	.	.	.	.	.	.	.	.	.	.	.	.	[	.	.	[	.	.	.
.	.	.	.	.	.	.	.	.	.	.	.	.	.	.	8d/	pro	.	.	.	.	8d\	-bis,	.	.	.	.	8dd\	-bis,	.
!	!	!	!	!	!	!	!	!LO:HP:color=red	!	!	!	!	!	!	!	!	!	!	!	!	!	!	!	!	!	!	!	!	!
.	.	.	12d\J	.	.	.	.	>	.	.	.	.	.	.	.	.	.	.	.	.	.	.	.	.	.	.	.	.	.
.	16c\Jk	.	.	.	.	.	.	.	.	.	.	.	.	.	.	.	.	16c\	pro	.	.	.	.	16d/	pro	.	.	.	.
=24	=24	=24	=24	=24	=24	=24	=24	=24	=24	=24	=24	=24	=24	=24	=24	=24	=24	=24	=24	=24	=24	=24	=24	=24	=24	=24	=24	=24	=24
!	!	!	!	!	!	!	!	!	!	!	!	!	!	!	!	!	!LO:HP:color=red	!	!	!	!	!	!	!	!	!	!	!	!
!LO:S:color=red	!	!	!	!LO:DY:b=2:rj	!	!	!	!	!	!	!	!	!	!LO:DY:rj:color=red	!	!	!LO:DY:rj:color=red	!	!	!LO:DY:rj	!	!	!LO:DY:rj	!	!	!LO:DY:a:rj	!	!	!LO:DY:a:rj
(2.d/	(4d\	(4ff#X/	12r	f	8D@/]	1r	.	.	1r	.	.	2d/	O-	f	4d/	no-	f >	(4d\	no-	f	4f#X\	o-	f	2a/	no-	f	4ff#X\	o-	f
.	.	.	12f#X\L	.	.	.	.	.	.	.	.	.	.	.	.	.	.	.	.	.	.	.	.	.	.	.	.	.	.
.	.	.	.	.	8D@/	.	-ra,	]	.	.	.	.	.	.	.	.	.	.	.	.	.	.	.	.	.	.	.	.	.
.	.	.	12g\J	.	.	.	.	.	.	.	.	.	.	.	.	.	.	.	.	.	.	.	.	.	.	.	.	.	.
.	4c\	8.ee/L	12an\L	.	4r@	.	.	.	.	.	.	.	.	.	4d/	-bis,	]	4c\)	.	.	8.e\	-ra	.	.	.	.	8.ee\	-ra	.
.	.	.	12e\	.	.	.	.	.	.	.	.	.	.	.	.	.	.	.	.	.	.	.	.	.	.	.	.	.	.
.	.	.	12f#\J	.	.	.	.	.	.	.	.	.	.	.	.	.	.	.	.	.	.	.	.	.	.	.	.	.	.
.	.	16dd/Jk	.	.	.	.	.	.	.	.	.	.	.	.	.	.	.	.	.	.	16d\	pro	.	.	.	.	16dd\	pro	.
.	2Bn\	4dd/	12g\L	.	2r@	.	.	.	.	.	.	4.d/	-ra	.	2r	.	.	2B\	-bis,	.	[2d\	no-	.	2g/	-bis,	.	(4dd\	no-	.
.	.	.	12d\	.	.	.	.	.	.	.	.	.	.	.	.	.	.	.	.	.	.	.	.	.	.	.	.	.	.
.	.	.	12g\J	.	.	.	.	.	.	.	.	.	.	.	.	.	.	.	.	.	.	.	.	.	.	.	.	.	.
4d/	.	4gg/	12gg\L	.	.	.	.	.	.	.	.	.	.	.	.	.	.	.	.	.	.	.	.	.	.	.	4gg\	.	.
.	.	.	12dd\	.	.	.	.	.	.	.	.	.	.	.	.	.	.	.	.	.	.	.	.	.	.	.	.	.	.
.	.	.	.	.	.	.	.	.	.	.	.	8d/	pro	.	.	.	.	.	.	.	.	.	.	.	.	.	.	.	.
.	.	.	12g\J	.	.	.	.	.	.	.	.	.	.	.	.	.	.	.	.	.	.	.	.	.	.	.	.	.	.
*	*	*	*	*	*v	*v	*	*	*	*	*	*	*	*	*	*	*	*	*	*	*	*	*	*	*	*	*	*	*
!!LO:PB:g=original
=25	=25	=25	=25	=25	=25	=25	=25	=25	=25	=25	=25	=25	=25	=25	=25	=25	=25	=25	=25	=25	=25	=25	=25	=25	=25	=25	=25	=25
*	*	*	*	*	*	*	*	*	*	*	*	*	*	*	*	*	*	*	*	*	*	*	*	*	*above	*	*	*
!	!	!	!	!	!	!	!	!	!	!LO:DY:color=red	!	!	!LO:HP:color=red	!	!	!	!	!	!	!	!	!	!	!	!	!	!	!
2d/	4A\	4ff#/	12dd\L	>	1r	.	.	2D/	O-	mp	4d/	no-	>	1r	.	.	(4A\	o-	>	4d\]	.	>	(4f#X/	o-	>	4ff#X\	.	>
.	.	.	12cc\	.	.	.	.	.	.	.	.	.	.	.	.	.	.	.	.	.	.	.	.	.	.	.	.	.
.	.	.	12f#\J	.	.	.	.	.	.	.	.	.	.	.	.	.	.	.	.	.	.	.	.	.	.	.	.	.
.	4G\	4ee/	12cc\L	.	.	.	.	.	.	.	4d/	-bis,	.	.	.	.	4G\)	.	.	4c\	-bis,	.	4g/)	.	.	4ee\	.	.
.	.	.	12g\	.	.	.	.	.	.	.	.	.	.	.	.	.	.	.	.	.	.	.	.	.	.	.	.	.
.	.	.	12e\J	.	.	.	.	.	.	.	.	.	]	.	.	.	.	.	.	.	.	.	.	.	.	.	.	.
!	!	!	!	!	!	!	!	!	!	!LO:HP:color=red	!	!	!	!	!	!	!	!	!	!	!	!	!	!	!	!	!	!
2A/)	2F#\)	4.dd/	12dd\L	.	.	.	.	4.D/	-ra	>	2r	.	.	.	.	.	2F#X\	-ra,	.	[2d\	o-	.	2a/	-ra,	.	4.dd\	.	.
.	.	.	12a\	.	.	.	.	.	.	.	.	.	.	.	.	.	.	.	.	.	.	.	.	.	.	.	.	.
.	.	.	12d\J	.	.	.	.	.	.	.	.	.	.	.	.	.	.	.	.	.	.	.	.	.	.	.	.	.
.	.	.	12a\L	.	.	.	.	.	.	.	.	.	.	.	.	.	.	.	.	.	.	]	.	.	.	.	.	.
.	.	.	12d\	.	.	.	.	.	.	.	.	.	.	.	.	.	.	.	.	.	.	.	.	.	]	.	.	.
.	.	8cc/)	.	.	.	.	.	8D/	pro	]]	.	.	.	.	.	.	.	.	.	.	.	.	.	.	.	8cc\)	-bis,	]
.	.	.	12a\J	]	.	.	.	.	.	.	.	.	.	.	.	.	.	.	]]	.	.	.	.	.	.	.	.	.
*v	*v	*	*	*	*	*	*	*	*	*	*	*	*	*	*	*	*	*	*	*	*	*	*	*	*	*	*	*
=26	=26	=26	=26	=26	=26	=26	=26	=26	=26	=26	=26	=26	=26	=26	=26	=26	=26	=26	=26	=26	=26	=26	=26	=26	=26	=26	=26
!	!	!	!LO:DY:rj:t=p.	!LO:ART:color=red	!	!LO:DY:rj:b:color=red	!	!	!LO:DY:color=red	!	!	!	!	!	!	!	!	!	!	!	!LO:HP:color=blue	!	!	!LO:HP:color=blue	!	!	!LO:HP:color=blue
(<4G\	(4b/	12b\L	p	2D^\	o-	p	4D/	no-	p	1r	.	.	1r	.	.	(4G\	o-	p <	(4d\]	.	p <	(4g/	o-	p <	(4b\	o-	p <
.	.	12g\	.	.	.	.	.	.	.	.	.	.	.	.	.	.	.	.	.	.	.	.	.	.	.	.	.
!	!	!	!LO:HP:color=blue	!	!	!	!	!	!	!	!	!	!	!	!	!	!	!	!	!	!	!	!	!	!	!	!
.	.	12d\J	<	.	.	.	.	.	.	.	.	.	.	.	.	.	.	.	.	.	.	.	.	.	.	.	.
4F#\	4dd/	12dd\L	.	.	.	.	4D/	-bis,	.	.	.	.	.	.	.	4F#\)	.	.	4A\)	.	[	4a/)	.	[	4dd\)	.	[
.	.	12a\	.	.	.	.	.	.	.	.	.	.	.	.	.	.	.	.	.	.	.	.	.	.	.	.	.
.	.	12d\J	[	.	.	.	.	.	.	.	.	.	.	.	.	.	.	.	.	.	.	.	.	.	.	.	.
!	!LO:TX:t=P:problem:mixed beam	!	!LO:HP:color=blue	!	!LO:HP:color=red	!	!	!	!	!	!	!	!	!	!	!	!	!	!	!	!LO:HP:color=blue	!	!	!LO:HP:color=blue	!	!	!LO:HP:color=blue
4Fn\	2a/)	12a\L	>	4.D\	-ra	>	2r	.	.	.	.	.	.	.	.	(4Fn\	-ra	[ >	2A\	-ra,	>	2a/	-ra,	>	2a/	-ra,	>
.	.	12d\	.	.	.	.	.	.	.	.	.	.	.	.	.	.	.	.	.	.	.	.	.	.	.	.	.
.	.	12A</J	.	.	.	.	.	.	.	.	.	.	.	.	.	.	.	.	.	.	.	.	.	.	.	.	.
!	!LO:TX:t=P:problem:mixed beam	!	!	!	!	!	!	!	!	!	!	!	!	!	!	!	!	!	!	!	!	!	!	!	!	!	!
4E\	.	12d\L	]]	.	.	.	.	.	.	.	.	.	.	.	.	4E\)	.	]]	.	.	]	.	.	]	.	.	]
.	.	12e\	.	.	.	.	.	.	.	.	.	.	.	.	.	.	.	.	.	.	.	.	.	.	.	.	.
.	.	.	.	8D\	pro	.	.	.	.	.	.	.	.	.	.	.	.	.	.	.	.	.	.	.	.	.	.
.	.	12A</J	.	.	.	.	.	.	.	.	.	.	.	.	.	.	.	.	.	.	.	.	.	.	.	.	.
=27	=27	=27	=27	=27	=27	=27	=27	=27	=27	=27	=27	=27	=27	=27	=27	=27	=27	=27	=27	=27	=27	=27	=27	=27	=27	=27	=27
!	!	!	!LO:DY:color=blue	!	!	!	!	!	!	!	!	!	!	!	!LO:DY:rj:color=blue	!	!	!LO:DY:rj:color=blue	!	!	!LO:DY:rj:color=blue	!	!	!LO:DY:rj:color=blue	!	!	!LO:DY:rj:color=blue
4Fn\	(4a/	12d\L	] pp	4D\	no-	.	1r	.	.	1r	.	.	2d/	o-	pp	(4Fn\	o-	pp	(4d\	o-	pp	(4a/	o-	pp	(4a/	o-	pp
.	.	12A</	.	.	.	.	.	.	.	.	.	.	.	.	.	.	.	.	.	.	.	.	.	.	.	.	.
.	.	12d\J	.	.	.	.	.	.	.	.	.	.	.	.	.	.	.	.	.	.	.	.	.	.	.	.	.
4E\	4b/	12d\L	.	4D\	-bis,	.	.	.	.	.	.	.	.	.	.	4E\)	.	.	4B\)	.	.	4g#X/)	.	.	4b/)	.	.
.	.	12e\	.	.	.	.	.	.	.	.	.	.	.	.	.	.	.	.	.	.	.	.	.	.	.	.	.
.	.	12g#X\J	.	.	.	.	.	.	.	.	.	.	.	.	.	.	.	.	.	.	.	.	.	.	.	.	.
!	!	!LO:N:vis=3	!	!	!	!	!	!	!	!	!	!	!	!	!	!	!	!	!	!	!	!	!	!	!	!	!
4F\	2dd/)	12dd\L	.	2r	.	.	.	.	.	.	.	.	4.d/	-ra	.	(4F\	-ra	.	2A\	-ra,	.	2a/	-ra,	.	[2dd\	-ra,	.
.	.	12a\	.	.	.	.	.	.	.	.	.	.	.	.	.	.	.	.	.	.	.	.	.	.	.	.	.
.	.	12d\J	.	.	.	.	.	.	.	.	.	.	.	.	.	.	.	.	.	.	.	.	.	.	.	.	.
4F#X\	.	12cc\L	.	.	.	.	.	.	.	.	.	.	.	.	.	4F#X\)	.	.	.	.	.	.	.	.	.	.	.
.	.	12a\	.	.	.	.	.	.	.	.	.	.	.	.	.	.	.	.	.	.	.	.	.	.	.	.	.
.	.	.	.	.	.	.	.	.	.	.	.	.	8d/	pro	.	.	.	.	.	.	.	.	.	.	.	.	.
.	.	12d\J	.	.	.	.	.	.	.	.	.	.	.	.	.	.	.	.	.	.	.	.	.	.	.	.	.
=28	=28	=28	=28	=28	=28	=28	=28	=28	=28	=28	=28	=28	=28	=28	=28	=28	=28	=28	=28	=28	=28	=28	=28	=28	=28	=28	=28
*^	*	*	*	*	*	*	*	*	*	*	*	*	*	*	*	*	*	*	*	*	*	*	*	*	*	*	*
!	!	!	!	!	!	!	!	!	!	!	!	!	!	!	!	!	!	!	!	!	!	!	!	!	!	!	!	!LO:HP:color=blue
!	!	!	!	!LO:DY:rj:color=blue	!	!	!	!	!	!	!	!	!LO:DY:rj:color=blue	!	!	!	!	!	!LO:DY:color=blue	!	!	!LO:DY:color=blue	!	!	!LO:DY:color=blue	!	!	!LO:DY:color=blue
[2.d/	4G\	(4dd/	12b\L	p	1r	.	.	1r	.	.	2d/	O-	pp	4d/	no-	.	(4G\	o-	p	2B\	o-	p	2b/	o-	p	4dd\]	.	p <
!	!	!	!	!LO:HP:color=blue	!	!	!	!	!	!	!	!	!	!	!	!	!	!	!LO:HP:color=blue	!	!	!	!	!	!	!	!	!
.	.	.	12g\	<	.	.	.	.	.	.	.	.	.	.	.	.	.	.	<	.	.	.	.	.	.	.	.	.
!	!	!	!	!	!	!	!	!	!	!	!	!	!	!	!	!	!	!	!	!	!	!LO:HP:color=blue	!	!	!LO:HP:color=blue	!	!	!
.	.	.	12f#\J	.	.	.	.	.	.	.	.	.	.	.	.	.	.	.	.	.	.	<	.	.	<	.	.	.
.	4G#X\	4ee/	12e\L	.	.	.	.	.	.	.	.	.	.	4d/	-bis,	.	4G#X\)	.	.	.	.	.	.	.	.	4ee\	o-	.
.	.	.	12b\	[	.	.	.	.	.	.	.	.	.	.	.	.	.	.	[	.	.	.	.	.	[	.	.	.
.	.	.	12e\J	.	.	.	.	.	.	.	.	.	.	.	.	.	.	.	.	.	.	[	.	.	.	.	.	[
!	!	!	!	!LO:HP:color=blue	!	!	!	!	!	!	!	!	!	!	!	!	!	!	!	!	!	!	!	!	!	!	!	!
.	4A\	4dd/	12f#\L	>	.	.	.	.	.	.	4.d/	-ra	.	2r	.	.	4A\	-ra	.	4c\	-ra	.	4f#/	-ra	.	4dd\	-ra	.
!	!	!	!	!	!	!	!	!	!	!	!	!	!	!	!	!	!	!	!LO:HP:color=blue	!	!	!	!	!	!	!	!	!LO:HP:color=blue
.	.	.	12e\	.	.	.	.	.	.	.	.	.	.	.	.	.	.	.	>	.	.	.	.	.	.	.	.	>
!	!	!	!	!	!	!	!	!	!	!	!	!	!	!	!	!	!	!	!	!	!	!LO:HP:color=blue	!	!	!LO:HP:color=blue	!	!	!
.	.	.	12f#\J	.	.	.	.	.	.	.	.	.	.	.	.	.	.	.	.	.	.	>	.	.	>	.	.	.
4d/]	8.B\L	8.g/L	12g\L	]	.	.	.	.	.	.	.	.	.	.	.	.	8B\L	pro	.	8d\L	pro	.	4g/	pro	]]	8.g/L	pro	.
.	.	.	12f#\	.	.	.	.	.	.	.	.	.	.	.	.	.	.	.	]	.	.	.	.	.	.	.	.	.
.	.	.	.	.	.	.	.	.	.	.	8d/	pro	.	.	.	.	8c\J	.	.	8e\J	.	]	.	.	.	.	.	.
.	.	.	12e\J	.	.	.	.	.	.	.	.	.	.	.	.	.	.	.	.	.	.	.	.	.	.	.	.	]
.	16c\Jk	16a/Jk	.	.	.	.	.	.	.	.	.	.	.	.	.	.	.	.	.	.	.	.	.	.	.	16a/Jk	.	.
*v	*v	*	*	*	*	*	*	*	*	*	*	*	*	*	*	*	*	*	*	*	*	*	*	*	*	*	*	*
!!LO:PB:g=original
=29	=29	=29	=29	=29	=29	=29	=29	=29	=29	=29	=29	=29	=29	=29	=29	=29	=29	=29	=29	=29	=29	=29	=29	=29	=29	=29	=29
!LO:TX:t=P:problem:brak zakończenia łuku	!	!	!	!	!	!	!	!	!LO:DY:b:rj:color=red	!	!	!	!	!	!	!	!	!	!	!	!	!	!	!	!	!	!
4d\ 4D\)	4b/	12d\L	]	1r	.	.	2D/	o-	pp	4d/	no-	.	1r	.	.	(>2d\	no-	.	4d\	no-	.	(2.g/	no-	.	4b/	no-	.
.	.	12g\	.	.	.	.	.	.	.	.	.	.	.	.	.	.	.	.	.	.	.	.	.	.	.	.	.
.	.	12B\J	.	.	.	.	.	.	.	.	.	.	.	.	.	.	.	.	.	.	.	.	.	.	.	.	.
4E\	4g/	12d\L	.	.	.	.	.	.	.	4d/	-bis,	.	.	.	.	.	.	.	8B\	-bis,	.	.	.	.	8g/	-bis,	.
!	!	!	!LO:HP:color=blue	!	!	!	!	!	!	!	!	!	!	!	!	!	!	!	!	!	!	!	!	!	!	!	!
.	.	12B\	<	.	.	.	.	.	.	.	.	.	.	.	.	.	.	.	.	.	.	.	.	.	.	.	.
!	!	!	!	!	!	!	!	!	!	!	!	!	!	!	!	!	!	!	!	!	!LO:HP:color=blue	!	!	!	!	!	!LO:HP:color=blue
.	.	.	.	.	.	.	.	.	.	.	.	.	.	.	.	.	.	.	16r	.	<	.	.	.	16r	.	<
.	.	12d\J	.	.	.	.	.	.	.	.	.	.	.	.	.	.	.	.	.	.	.	.	.	.	.	.	.
.	.	.	.	.	.	.	.	.	.	.	.	.	.	.	.	.	.	.	16B\	pro	.	.	.	.	16g/	pro	.
!	!	!	!	!	!	!	!	!	!LO:HP:color=red	!	!	!	!	!	!	!	!	!	!	!	!L	!	!	!	!	!	!
4D\	4b/	12B\L	.	.	.	.	4.D/	-ra	<	2r	.	.	.	.	.	2D/)	.	.	(4d\	no-	[	.	.	.	(4b/	no-	[
!	!	!	!	!	!	!	!	!	!	!	!	!	!	!	!	!	!	!	!	!	!LO:HP:color=blue	!	!	!	!	!	!LO:HP:color=blue
.	.	12d\	[	.	.	.	.	.	.	.	.	.	.	.	.	.	.	.	.	.	>	.	.	.	.	.	>
.	.	12g\J	.	.	.	.	.	.	.	.	.	.	.	.	.	.	.	.	.	.	.	.	.	.	.	.	.
!	!	!	!LO:HP:color=blue	!	!	!	!	!	!	!	!	!	!	!	!	!	!	!	!	!	!	!	!	!	!	!	!
4DD/	4a/	12c\L	>	.	.	.	.	.	.	.	.	.	.	.	.	.	.	.	4c\)	.	]]	4f#/)	.	.	4a/)	.	]]
.	.	12d\	.	.	.	.	.	.	.	.	.	.	.	.	.	.	.	.	.	.	.	.	.	.	.	.	.
.	.	.	.	.	.	.	8D/	pro	[[	.	.	.	.	.	.	.	.	.	.	.	.	.	.	.	.	.	.
.	.	12f#\J	]]	.	.	.	.	.	.	.	.	.	.	.	.	.	.	.	.	.	.	.	.	.	.	.	.
=30	=30	=30	=30	=30	=30	=30	=30	=30	=30	=30	=30	=30	=30	=30	=30	=30	=30	=30	=30	=30	=30	=30	=30	=30	=30	=30	=30
!	!	!	!LO:HP:color=blue	!	!	!LO:DY:b:rj:color=red	!LO:ART:color=red	!	!	!	!	!	!	!	!	!	!	!	!	!	!	!	!	!	!	!	!
4GG\	4g/)	12B\L	<	2D\	o-	pp	4D^>/	no-	.	1r	.	.	1r	.	.	4G\	-bis,	.	4B\	-bis,	.	4g/	-bis,	.	4g/	-bis,	.
!	!	!	!	!	!	!LO:HP:color=red	!	!	!LO:HP:color=red	!	!	!	!	!	!	!	!	!	!	!	!	!	!	!	!	!	!
.	.	12d\	.	.	.	<	.	.	>	.	.	.	.	.	.	.	.	.	.	.	.	.	.	.	.	.	.
.	.	12g\J	.	.	.	.	.	.	.	.	.	.	.	.	.	.	.	.	.	.	.	.	.	.	.	.	.
4r	4r	12b\L	.	.	.	.	4D/	-bis,	.	.	.	.	.	.	.	4r	.	.	4r	.	.	4r	.	.	4r	.	.
.	.	12dd\	.	.	.	.	.	.	]	.	.	.	.	.	.	.	.	.	.	.	.	.	.	.	.	.	.
.	.	12g\J	[ f	.	.	.	.	.	.	.	.	.	.	.	.	.	.	.	.	.	.	.	.	.	.	.	.
!	!	!	!	!	!	!	!	!	!	!	!	!	!	!	!	!	!	!LO:DY:rj	!	!	!LO:DY:rj	!	!	!LO:DY:rj	!	!	!LO:DY:rj
4e\ 4d\ 4G\ 4E\	4gg/	12gg\L 12b\	.	4.D\	-ra	.	2r	.	.	.	.	.	.	.	.	4d\	o-	f	4d\	o-	f	4dd\	o-	f	4dd\	o-	f
.	.	12dd\	.	.	.	[	.	.	.	.	.	.	.	.	.	.	.	.	.	.	.	.	.	.	.	.	.
.	.	12g\J	.	.	.	.	.	.	.	.	.	.	.	.	.	.	.	.	.	.	.	.	.	.	.	.	.
8.e\L 8.d\ 8.G\ 8.E\	8.gg/L	12gg\L 12b\	.	.	.	.	.	.	.	.	.	.	.	.	.	8.d\	-ra	.	8.d\	-ra	.	8.dd\	-ra	.	8.dd\	-ra	.
.	.	12dd\	.	.	.	.	.	.	.	.	.	.	.	.	.	.	.	.	.	.	.	.	.	.	.	.	.
!	!	!	!	!	!	!LO:DY:color=red	!	!	!	!	!	!	!	!	!	!	!	!	!	!	!	!	!	!	!	!	!
.	.	.	.	8D\	pro	mf	.	.	.	.	.	.	.	.	.	.	.	.	.	.	.	.	.	.	.	.	.
.	.	12g\J	.	.	.	.	.	.	.	.	.	.	.	.	.	.	.	.	.	.	.	.	.	.	.	.	.
16e\Jk 16d\ 16G\ 16E\	16gg/Jk	.	.	.	.	.	.	.	.	.	.	.	.	.	.	16d\	pro	.	16d\	pro	.	16dd\	pro	.	16dd\	pro	.
=31	=31	=31	=31	=31	=31	=31	=31	=31	=31	=31	=31	=31	=31	=31	=31	=31	=31	=31	=31	=31	=31	=31	=31	=31	=31	=31	=31
*	*	*	*	*	*	*	*	*	*	*	*	*	*	*	*	*	*	*	*	*	*	*2\right	*	*	*	*	*
!	!	!	!	!LO:ART:color=red	!	!	!	!	!	!	!	!	!	!	!	!	!	!LO:HP:color=blue	!	!	!LO:HP:color=blue	!LO:HP:color=blue	!	!LO:HP:color=blue	!	!	!LO:HP:color=blue
2e\@ 2d\@ 2G\ 2E^^\	2gg/ 2b/	12b\L	.	4D^>\	no-	.	2r	.	.	2r	.	.	2r	.	.	2d\	no-	>	2d\	no-	>	2dd\	no-	>	2dd\	no-	>
!	!	!	!LO:HP:a	!	!	!	!	!	!	!	!	!	!	!	!	!	!	!	!	!	!	!	!	!	!	!	!
.	.	12dd\	>	.	.	.	.	.	.	.	.	.	.	.	.	.	.	.	.	.	.	.	.	.	.	.	.
!	!	!	!	!	!	!LO:HP:color=red	!	!	!	!	!	!	!	!	!	!	!	!	!	!	!	!	!	!	!	!	!
.	.	12g\J	.	.	.	>	.	.	.	.	.	.	.	.	.	.	.	.	.	.	.	.	.	.	.	.	.
!	!LO:TX:t=P:problem:mixed beam	!	!	!	!	!	!	!	!	!	!	!	!	!	!	!	!	!	!	!	!	!	!	!	!	!	!
.	.	12b\L	.	8D\	-bis,	]]	.	.	.	.	.	.	.	.	.	.	.	.	.	.	.	.	.	.	.	.	.
.	.	12d/	.	.	.	.	.	.	.	.	.	.	.	.	.	.	.	.	.	.	.	.	.	.	.	.	.
.	.	.	.	8r	.	.	.	.	.	.	.	.	.	.	.	.	.	.	.	.	.	.	.	.	.	.	.
.	.	12g/J	.	.	.	.	.	.	.	.	.	.	.	.	.	.	.	.	.	.	.	.	.	.	.	.	.
!	!LO:TX:t=P:problem:mixed beam	!	!LO:DY:rj:t=p.	!	!	!LO:DY:rj:t=pp.	!	!	!LO:DY:rj:t=pp.	!	!	!LO:DY:rj:t=pp.	!	!	!LO:DY:rj	!	!	!	!	!	!	!	!	!	!	!	!
4BB\' 4EE'\	4g/	12d\L	] p	4D\	o-	pp	4D/	o-	pp	4d/	o-	pp	4d/	o-	pp	4D/	-bis,	]	8D/	-bis,	]	8d/	-bis,	]	8d/	-bis,	]
.	.	12e\	.	.	.	.	.	.	.	.	.	.	.	.	.	.	.	.	.	.	.	.	.	.	.	.	.
.	.	.	.	.	.	.	.	.	.	.	.	.	.	.	.	.	.	.	8r	.	.	8r	.	.	8r	.	.
.	.	12G</J	.	.	.	.	.	.	.	.	.	.	.	.	.	.	.	.	.	.	.	.	.	.	.	.	.
!	!LO:TX:t=P:problem:mixed beam	!	!	!	!	!	!	!	!	!	!	!	!	!	!	!	!	!	!	!	!LO:DY:rj:t=p.	!	!	!LO:DY:rj:t=p.	!	!	!LO:DY:rj:t=p.
8.BB\L 8.EE'\	8.g/L	12d\L	.	8.D\	-ra	.	8.D/	-ra	.	8.d/	-ra	.	8.d/	-ra	.	4r	.	.	4B/	pro	p	4g/	pro	p	4g/	pro	p
.	.	12e\	.	.	.	.	.	.	.	.	.	.	.	.	.	.	.	.	.	.	.	.	.	.	.	.	.
.	.	12G</J	.	.	.	.	.	.	.	.	.	.	.	.	.	.	.	.	.	.	.	.	.	.	.	.	.
16BB\Jk 16EE\	16g/Jk	.	.	16D\	pro	.	16D/	pro	.	16d/	pro	.	16d/	pro	.	.	.	.	.	.	.	.	.	.	.	.	.
=32	=32	=32	=32	=32	=32	=32	=32	=32	=32	=32	=32	=32	=32	=32	=32	=32	=32	=32	=32	=32	=32	=32	=32	=32	=32	=32	=32
*^	*	*	*	*	*	*	*	*	*	*	*	*	*	*	*	*	*	*	*	*	*	*	*	*	*	*	*
*	*^	*	*	*	*	*	*	*	*	*	*	*	*	*	*	*	*	*	*	*	*	*	*	*	*	*	*	*
!	!	!LO:S:color=red	!	!	!	!	!	!	!	!	!	!	!	!	!	!	!	!	!	!	!	!	!	!	!	!	!	!	!
4r	4C/	(<2EE\	4a/	12f#X\L	.	1D\	no-	.	1D/	no-	.	1d/	no-	.	1d/	no-	.	2r	.	.	4A/	no-	.	4f#/	no-	.	4a/	no-	.
.	.	.	.	12e\	.	.	.	.	.	.	.	.	.	.	.	.	.	.	.	.	.	.	.	.	.	.	.	.	.
.	.	.	.	12f#\J	.	.	.	.	.	.	.	.	.	.	.	.	.	.	.	.	.	.	.	.	.	.	.	.	.
2.d/	4BB/	.	4b/	12g\L	.	.	.	.	.	.	.	.	.	.	.	.	.	.	.	.	4G/	-bis	.	4g/	-bis	.	8b/	-bis,	.
.	.	.	.	12e\	.	.	.	.	.	.	.	.	.	.	.	.	.	.	.	.	.	.	.	.	.	.	.	.	.
.	.	.	.	.	.	.	.	.	.	.	.	.	.	.	.	.	.	.	.	.	.	.	.	.	.	.	8r	.	.
.	.	.	.	12g\J	.	.	.	.	.	.	.	.	.	.	.	.	.	.	.	.	.	.	.	.	.	.	.	.	.
!	!	!	!	!	!LO:HP:a:color=blue	!	!	!	!	!	!LO:HP:color=blue	!	!	!LO:HP:color=red	!	!	!LO:HP:color=blue	!	!	!LO:DY:rj:t=p.	!	!	!LO:HP:color=blue	!	!	!LO:HP:color=blue	!	!	!LO:HP:color=blue
.	4AA/	4AA\)	4cc/	12a\L	<	.	.	.	.	.	<	.	.	<	.	.	<	2A\	o-	p	(4e\	o-	<	(4g/	o-	<	(4.cc\	o-	<
!	!	!	!	!	!	!	!	!	!	!	!	!	!	!	!	!	!	!	!	!LO:HP:color=red	!	!	!	!	!	!	!	!	!
.	.	.	.	12e\	.	.	.	.	.	.	.	.	.	.	.	.	.	.	.	<	.	.	.	.	.	.	.	.	.
.	.	.	.	12g\J	.	.	.	.	.	.	.	.	.	.	.	.	.	.	.	.	.	.	.	.	.	.	.	.	.
.	(4D/	4rAAA	8.cc/L	12f#X\L	.	.	.	.	.	.	.	.	.	.	.	.	.	.	.	.	4d\)	.	.	4f#/)	.	[[	.	.	.
.	.	.	.	12a\	.	.	.	.	.	.	.	.	.	.	.	.	.	.	.	.	.	.	.	.	.	.	.	.	.
.	.	.	.	.	.	.	.	.	.	.	.	.	.	.	.	.	.	.	.	.	.	.	.	.	.	.	8dd\)	.	[[
.	.	.	.	12d\J	.	.	.	.	.	.	.	.	.	.	.	.	.	.	.	.	.	.	.	.	.	.	.	.	.
.	.	.	16dd/Jk	.	[[	.	.	.	.	.	[[	.	.	[	.	.	[	.	.	[[	.	.	[[	.	.	.	.	.	.
*v	*v	*v	*	*	*	*	*	*	*	*	*	*	*	*	*	*	*	*	*	*	*	*	*	*	*	*	*	*	*
!!LO:PB:g=original
=33	=33	=33	=33	=33	=33	=33	=33	=33	=33	=33	=33	=33	=33	=33	=33	=33	=33	=33	=33	=33	=33	=33	=33	=33	=33	=33	=33
!	!	!	!	!	!	!	!	!	!	!	!	!	!	!	!	!	!	!LO:DY:color=blue	!	!	!LO:DY:color=blue	!	!	!LO:DY:b:color=blue	!	!	!LO:DY:color=blue
4G\	4b/	12g\L	.	4D\	-bis,	.	4D/	-bis,	.	4d/	-bis,	.	4d/	-bis,	.	4G\	-ra	mp	4G/	-ra	mp	4g/	-ra	mp	4b\	-ra	mp
.	.	12B\	.	.	.	.	.	.	.	.	.	.	.	.	.	.	.	.	.	.	.	.	.	.	.	.	.
.	.	12d\J	.	.	.	.	.	.	.	.	.	.	.	.	.	.	.	.	.	.	.	.	.	.	.	.	.
4E\	4b/	12g\L	.	4D\	pro	.	4D/	pro	.	4d/	pro	.	4d/	pro	.	4E\	pro	.	4B/	pro	.	4g/	pro	.	4b\	pro	.
.	.	12e\	.	.	.	.	.	.	.	.	.	.	.	.	.	.	.	.	.	.	.	.	.	.	.	.	.
.	.	12B\J	.	.	.	.	.	.	.	.	.	.	.	.	.	.	.	.	.	.	.	.	.	.	.	.	.
!	!	!	!LO:HP:a:color=blue	!	!	!	!	!	!	!	!	!	!	!	!	!	!	!LO:HP:color=blue	!	!	!LO:HP:color=blue	!	!	!LO:HP:color=blue	!	!	!LO:HP:color=blue
4BB\	4b/	12d\L	>	2D\	no-	>]	2D/	no-	> > ]]	2d/	no-	> > ]]	2d/	no-	.	(4BB\	no-	>	2F#/	no-	>	(4.d/	no-	>	(4.b\	no-	>
.	.	12f#\	.	.	.	.	.	.	.	.	.	.	.	.	.	.	.	.	.	.	.	.	.	.	.	.	.
.	.	12B\J	.	.	.	.	.	.	.	.	.	.	.	.	.	.	.	.	.	.	.	.	.	.	.	.	.
4D\	4a/	12c\L	.	.	.	.	.	.	.	.	.	.	.	.	.	4D\)	.	.	.	.	.	.	.	.	.	.	.
.	.	12d\	.	.	.	.	.	.	.	.	.	.	.	.	.	.	.	.	.	.	.	.	.	.	.	.	.
.	.	.	.	.	.	.	.	.	.	.	.	.	.	.	.	.	.	.	.	.	.	8c/)	.	.	8a\)	.	.
.	.	12f#\J	.	.	.	.	.	.	.	.	.	.	.	.	.	.	.	]]	.	.	]]	.	.	]]	.	.	]]
=34	=34	=34	=34	=34	=34	=34	=34	=34	=34	=34	=34	=34	=34	=34	=34	=34	=34	=34	=34	=34	=34	=34	=34	=34	=34	=34	=34
!	!LO:TX:t=P:problem:mixed beam	!	!LO:HP:color=blue	!	!	!	!	!	!	!	!	!	!	!	!	!	!	!	!	!	!	!	!	!	!	!	!
4.GG\)	4g/	12B\L	] <	4GG/	-bis.	.	4G/	-bis.	]	4B/	-bis.	]	4d/	-bis.	.	4GG/	-bis,	.	4G/	-bis,	.	4B/	-bis,	.	4g/	-bis,	.
.	.	12G</	.	.	.	.	.	.	.	.	.	.	.	.	.	.	.	.	.	.	.	.	.	.	.	.	.
.	.	12d\J	.	.	.	.	.	.	.	.	.	.	.	.	.	.	.	.	.	.	.	.	.	.	.	.	.
.	4r	12g\L	.	4r	.	.	4r	.	.	4r	.	.	4r	.	.	4r	.	.	4r	.	.	4r	.	.	4r	.	.
.	.	12b\	[	.	.	.	.	.	.	.	.	.	.	.	.	.	.	.	.	.	.	.	.	.	.	.	.
8r	.	.	.	.	.	.	.	.	.	.	.	.	.	.	.	.	.	.	.	.	.	.	.	.	.	.	.
.	.	12dd\J	f	.	.	.	.	.	.	.	.	.	.	.	.	.	.	.	.	.	.	.	.	.	.	.	.
!	!	!	!	!	!	!	!	!	!	!	!	!	!	!	!	!	!	!LO:DY:rj:b	!	!	!LO:DY:rj	!	!	!LO:DY:rj	!	!	!LO:DY:rj
4e\ 4d\ 4G\ 4E\	4gg/	12b-X\L	.	2r	.	.	2r	.	.	2r	.	.	2r	.	.	4d\	o-	f	4d\	o-	f	4dd\	o-	f	4dd\	o-	f
.	.	12dd\	.	.	.	.	.	.	.	.	.	.	.	.	.	.	.	.	.	.	.	.	.	.	.	.	.
.	.	12g\J	.	.	.	.	.	.	.	.	.	.	.	.	.	.	.	.	.	.	.	.	.	.	.	.	.
8.e\L 8.d\ 8.G\ 8.E\	8.gg/L	12b-\L	.	.	.	.	.	.	.	.	.	.	.	.	.	8.d\	-ra	.	8.d\	-ra	.	8.dd\	-ra	.	8.dd\	-ra	.
.	.	12dd\	.	.	.	.	.	.	.	.	.	.	.	.	.	.	.	.	.	.	.	.	.	.	.	.	.
.	.	12g\J	.	.	.	.	.	.	.	.	.	.	.	.	.	.	.	.	.	.	.	.	.	.	.	.	.
16e\Jk 16d\ 16G\ 16E\	16gg/Jk	.	.	.	.	.	.	.	.	.	.	.	.	.	.	16d\	pro	.	16d\	pro	.	16dd\	pro	.	16dd\	pro	.
=35	=35	=35	=35	=35	=35	=35	=35	=35	=35	=35	=35	=35	=35	=35	=35	=35	=35	=35	=35	=35	=35	=35	=35	=35	=35	=35	=35
!	!	!	!LO:HP:color=blue	!	!	!	!	!	!	!	!	!	!	!	!	!	!	!LO:HP:color=blue	!	!	!LO:HP:color=blue	!	!	!LO:HP:color=blue	!	!	!LO:HP:color=blue
2e\ 2d\ 2G\ 2E^^\	2gg^^/	12b-X\L	>	2r	.	.	2r	.	.	2r	.	.	2r	.	.	2d\	no-	>	2d\	no-	>	2dd\	no-	>	2dd\	no-	>
.	.	12dd\	.	.	.	.	.	.	.	.	.	.	.	.	.	.	.	.	.	.	.	.	.	.	.	.	.
.	.	12g\J	.	.	.	.	.	.	.	.	.	.	.	.	.	.	.	.	.	.	.	.	.	.	.	.	.
!	!LO:TX:t=P:problem:mixed beam	!	!	!	!	!	!	!	!	!	!	!	!	!	!	!	!	!	!	!	!	!	!	!	!	!	!
.	.	12b-\L	.	.	.	.	.	.	.	.	.	.	.	.	.	.	.	.	.	.	.	.	.	.	.	.	.
.	.	12d\	.	.	.	.	.	.	.	.	.	.	.	.	.	.	.	.	.	.	.	.	.	.	.	.	.
.	.	12g\J	.	.	.	.	.	.	.	.	.	.	.	.	.	.	.	.	.	.	.	.	.	.	.	.	.
!	!LO:TX:t=P:problem:mixed beam	!	!	!	!	!LO:DY:rj:t=pp.	!	!	!LO:DY:rj:t=pp.	!	!	!LO:DY:rj:t=pp.	!	!	!LO:DY:rj:t=pp.	!	!	!	!	!	!	!	!	!	!	!	!
4BB-X\ 4DD\	4g/	12d\L	]	4D\	O-	pp	4D/	O-	pp	4d/	O-	pp	4d/	o-	pp	8D/	-bis,	]	8D/	-bis,	]	8d/	-bis,	]	8d/	-bis,	]
.	.	12e\	.	.	.	.	.	.	.	.	.	.	.	.	.	.	.	.	.	.	.	.	.	.	.	.	.
.	.	.	.	.	.	.	.	.	.	.	.	.	.	.	.	8r	.	.	8r	.	.	8r	.	.	8r	.	.
.	.	12G\J	.	.	.	.	.	.	.	.	.	.	.	.	.	.	.	.	.	.	.	.	.	.	.	.	.
!	!LO:TX:t=P:problem:mixed beam	!	!LO:DY:a:color=blue	!	!	!	!	!	!	!	!	!	!	!	!	!	!	!LO:DY:rj:color=blue	!	!	!LO:DY:rj:color=blue	!	!	!LO:DY:rj:color=blue	!	!	!LO:DY:color=blue
8.BB-\L 8.DD\	8.g/L	12d\L	p	8.D\	-ra	.	8.D/	-ra	.	8.d/	-ra	.	8.d/	-ra	.	4D/	pro	p	4d\	pro	p	4d/	pro	p	4d/	pro	p
.	.	12e\	.	.	.	.	.	.	.	.	.	.	.	.	.	.	.	.	.	.	.	.	.	.	.	.	.
.	.	12G\J	.	.	.	.	.	.	.	.	.	.	.	.	.	.	.	.	.	.	.	.	.	.	.	.	.
16BB-\Jk 16DD\	16g/Jk	.	.	16D\	pro	.	16D/	pro	.	16d/	pro	.	16d/	pro	.	.	.	.	.	.	.	.	.	.	.	.	.
=36	=36	=36	=36	=36	=36	=36	=36	=36	=36	=36	=36	=36	=36	=36	=36	=36	=36	=36	=36	=36	=36	=36	=36	=36	=36	=36	=36
*^	*	*	*	*	*	*	*	*	*	*	*	*	*	*	*	*	*	*	*	*	*	*	*	*	*	*	*
!	!	!	!	!LO:HP:color=red	!	!	!	!	!	!	!	!	!	!	!	!	!	!	!	!	!	!	!	!	!	!	!	!
2ryy	4BB-X\	4g/	12e\L	<	(4B-X\	no-	<	(4d\	no-	<	(4g/	no-	<	(4g/	no-	<	(4B-X\	no-	<	(2.d\	no-	<	(4e/	no-	<	(4g/	no-	<
.	.	.	12d\	.	.	.	.	.	.	.	.	.	.	.	.	.	.	.	.	.	.	.	.	.	.	.	.	.
.	.	.	12e\J	.	.	.	.	.	.	.	.	.	.	.	.	.	.	.	.	.	.	.	.	.	.	.	.	.
.	4AA\	4a/	12f#\L	.	4A\	.	.	4c\	.	.	4f#X/	.	.	4a/	.	.	4A\	.	.	.	.	.	4f#X/	.	.	4a/	.	.
.	.	.	12d\	.	.	.	.	.	.	.	.	.	.	.	.	.	.	.	.	.	.	.	.	.	.	.	.	.
.	.	.	12f#\J	.	.	.	.	.	.	.	.	.	.	.	.	.	.	.	.	.	.	.	.	.	.	.	.	.
!LO:S:color=red	!	!	!	!	!	!	!	!	!	!	!	!	!	!	!	!	!	!	!	!	!	!	!	!	!	!	!	!
(>4G/ 4GG/	(4GG\	(4b-X/	12g\L	.	4G\	.	.	4B-X\	.	.	4d/	.	.	4b-X/	.	.	4G\	.	.	.	.	.	4g/	.	.	4b-X\	.	.
.	.	.	12d\	.	.	.	.	.	.	.	.	.	.	.	.	.	.	.	.	.	.	.	.	.	.	.	.	.
.	.	.	12g\J	.	.	.	.	.	.	.	.	.	.	.	.	.	.	.	.	.	.	.	.	.	.	.	.	.
4F#X/)	4r	4cc/	12e-X\L	.	4F#X\	.	.	4A\	.	.	4c/	.	.	4cc/	.	.	4F#X\	.	.	4e-X\	.	.	4a/	.	.	4cc\	.	.
.	.	.	12a\	.	.	.	.	.	.	.	.	.	.	.	.	.	.	.	.	.	.	.	.	.	.	.	.	.
.	.	.	12e-\J	[[	.	.	[[	.	.	[[	.	.	[[	.	.	[[	.	.	[[	.	.	[[	.	.	[[	.	.	[[
*v	*v	*	*	*	*	*	*	*	*	*	*	*	*	*	*	*	*	*	*	*	*	*	*	*	*	*	*	*
!!LO:PB:g=original
=37	=37	=37	=37	=37	=37	=37	=37	=37	=37	=37	=37	=37	=37	=37	=37	=37	=37	=37	=37	=37	=37	=37	=37	=37	=37	=37	=37
!	!	!	!	!LO:TX:t=cre-scen-do.:ext2=cd:problem:dynamics with extension lines	!	!LO:HP:t=cre-scen-do.	!LO:TX:t=cre-scen-do.:ext2=cd:problem:dynamics with extension lines	!	!LO:HP:t=cre-scen-do.	!LO:TX:t=cre-scen-do.:ext2=cd:problem:dynamics with extension lines	!	!LO:HP:t=cre-scen-do.	!LO:TX:t=cre-scen-do.:ext2=cd:problem:dynamics with extension lines	!	!LO:HP:t=cre-scen-do.	!LO:TX:t=cre-scen-do.:ext2=cd:problem:dynamics with extension lines	!	!LO:HP:t=cre-scen-do.	!LO:TX:t=cre-scen-do.:ext2=cd:problem:dynamics with extension lines	!	!LO:HP:t=cre-scen-do.	!LO:TX:t=cre-scen-do.:ext2=cd:problem:dynamics with extension lines	!	!LO:HP:t=cre-scen-do.	!LO:TX:t=cre-scen-do.:ext2=cd:problem:dynamics with extension lines	!	!LO:HP:t=cre-scen-do.
4d\ 4Fn\	4dd/	12b-X\L	<	4Fn\	.	<	4A-X\	.	<	4d/	.	<	4dd\	.	<	4Fn\	.	<	4d\	.	<	4b-X\	.	<	4dd\	.	<
.	.	12fn\	.	.	.	.	.	.	.	.	.	.	.	.	.	.	.	.	.	.	.	.	.	.	.	.	.
.	.	12b-\J	.	.	.	.	.	.	.	.	.	.	.	.	.	.	.	.	.	.	.	.	.	.	.	.	.
4c#X\ 4E\	4ee/	12g\L	.	4E\	.	.	4G\	.	.	4e/	.	.	4ee\	.	.	4E\	.	.	4c#X\	.	.	2a\)	.	.	4ee\	.	.
.	.	12a\	.	.	.	.	.	.	.	.	.	.	.	.	.	.	.	.	.	.	.	.	.	.	.	.	.
.	.	12g\J	.	.	.	.	.	.	.	.	.	.	.	.	.	.	.	.	.	.	.	.	.	.	.	.	.
4cn\ 4E-X\	4ff#X/	12f#X\L	.	4E-X\	.	.	4An\	.	.	4f#X/	.	.	4ff#X\	.	.	4E-X\	.	.	4cn\	.	.	.	.	.	4ff#X\	.	.
.	.	12a\	.	.	.	.	.	.	.	.	.	.	.	.	.	.	.	.	.	.	.	.	.	.	.	.	.
.	.	12f#\J	.	.	.	.	.	.	.	.	.	.	.	.	.	.	.	.	.	.	.	.	.	.	.	.	.
4B-X\ 4D\)	4gg/	12g\L	.	4D\	.	[	4B-X\	.	[	4g/	.	[	4gg\	.	[	4D\	.	[	4B-X\	.	[	4g/	-bis,	[	4gg\	.	[
.	.	12dd\	.	.	.	.	.	.	.	.	.	.	.	.	.	.	.	.	.	.	.	.	.	.	.	.	.
.	.	12g\J)	[[	.	.	.	.	.	.	.	.	.	.	.	.	.	.	.	.	.	.	.	.	.	.	.	.
=38	=38	=38	=38	=38	=38	=38	=38	=38	=38	=38	=38	=38	=38	=38	=38	=38	=38	=38	=38	=38	=38	=38	=38	=38	=38	=38	=38
*^	*	*	*	*	*	*	*	*	*	*	*	*	*	*	*	*	*	*	*	*	*	*	*	*	*	*	*
*	*	*	*	*	*	*	*	*	*	*	*	*	*	*	*	*	*	*	*	*	*	*	*	*color:blue	*	*	*	*
!	!	!	!	!LO:DY:rj:color=blue	!	!	!LO:DY:b:rj:color=blue	!	!	!LO:DY:b:rj:color=blue	!	!	!LO:DY:rj:color=blue	!	!	!LO:DY:rj:color=blue	!	!	!LO:DY:rj:color=blue	!	!	!LO:DY:rj:color=blue	!	!	!LO:DY:rj:color=blue	!	!	!LO:DY:rj:color=blue
!	!	!	!	!LO:HP:b=2	!	!	!	!	!	!	!	!	!	!	!	!	!	!	!	!	!	!	!	!	!	!	!	!
4A/	4C\	(1ee-X/	12g\L	f >	1C/	.	f >	1e-X/	.	f >	[1c/)	.	f >	(1ee-X\	.	f >	1C/)	.	f >	[1A/)	.	f >	1g/	o-	f >	1ee-X\	.	f >
*	*	*	*	*	*	*	*	*	*	*	*	*	*	*	*	*	*	*	*	*	*	*	*	*color:auto	*	*	*	*
.	.	.	12a\	.	.	.	.	.	.	.	.	.	.	.	.	.	.	.	.	.	.	.	.	.	.	.	.	.
.	.	.	12g\J	.	.	.	.	.	.	.	.	.	.	.	.	.	.	.	.	.	.	.	.	.	.	.	.	.
4c/ 4G/	4r	.	12e-X\L	.	.	.	.	.	.	.	.	.	.	.	.	.	.	.	.	.	.	.	.	.	.	.	.	.
.	.	.	12c\	.	.	.	.	.	.	.	.	.	.	.	.	.	.	.	.	.	.	.	.	.	.	.	.	.
.	.	.	12e-\J	.	.	.	.	.	.	.	.	.	.	.	.	.	.	.	.	.	.	.	.	.	.	.	.	.
4A/	4C\	.	12g\L	.	.	.	.	.	.	.	.	.	.	.	.	.	.	.	.	.	.	.	.	.	.	.	.	.
.	.	.	12a\	.	.	.	.	.	.	.	.	.	.	.	.	.	.	.	.	.	.	.	.	.	.	.	.	.
.	.	.	12g\J	.	.	.	.	.	.	.	.	.	.	.	.	.	.	.	.	.	.	.	.	.	.	.	.	.
4c/ 4G/	4r	.	12e-\L	.	.	.	.	.	.	.	.	.	.	.	.	.	.	.	.	.	.	.	.	.	.	.	.	.
.	.	.	12c\	.	.	.	.	.	.	.	.	.	.	.	.	.	.	.	.	.	.	.	.	.	.	.	.	.
.	.	.	12g\J	.	.	.	.	.	.	.	.	.	.	.	.	.	.	.	.	.	.	.	.	.	.	.	.	.
=39	=39	=39	=39	=39	=39	=39	=39	=39	=39	=39	=39	=39	=39	=39	=39	=39	=39	=39	=39	=39	=39	=39	=39	=39	=39	=39	=39	=39
4A\ 4D\	4ryy	1dd/	12f#X\L	.	1D\)	.	.	1d/)	.	.	1c/]	.	.	1dd\))	.	.	2D\	-bis.	.	1A/]	.	.	2f#X/	-ra.	.	1dd\)	.	.
.	.	.	12a\	.	.	.	.	.	.	.	.	.	.	.	.	.	.	.	.	.	.	.	.	.	.	.	.	.
.	.	.	12f#\J	.	.	.	.	.	.	.	.	.	.	.	.	.	.	.	.	.	.	.	.	.	.	.	.	.
4c/ 4F#X/	4r	.	12d\L	.	.	.	.	.	.	.	.	.	.	.	.	.	.	.	.	.	.	.	.	.	.	.	.	.
.	.	.	12c\	.	.	.	.	.	.	.	.	.	.	.	.	.	.	.	.	.	.	.	.	.	.	.	.	.
.	.	.	12d\J	.	.	.	.	.	.	.	.	.	.	.	.	.	.	.	.	.	.	.	.	.	.	.	.	.
4A\ 4D\	2ryy	.	12f#\L	.	.	.	]	.	.	]	.	.	]	.	.	]	2r	.	]	.	.	]	2r	.	]	.	.	]
.	.	.	12a\	]	.	.	.	.	.	.	.	.	.	.	.	.	.	.	.	.	.	.	.	.	.	.	.	.
.	.	.	12f#\J	.	.	.	.	.	.	.	.	.	.	.	.	.	.	.	.	.	.	.	.	.	.	.	.	.
4D\	.	.	12d/L	.	.	.	.	.	.	.	.	.	.	.	.	.	.	.	.	.	.	.	.	.	.	.	.	.
.	.	.	12c/	.	.	.	.	.	.	.	.	.	.	.	.	.	.	.	.	.	.	.	.	.	.	.	.	.
.	.	.	12A/J)	.	.	.	.	.	.	.	.	.	.	.	.	.	.	.	.	.	.	.	.	.	.	.	.	.
=40	=40	=40	=40	=40	=40	=40	=40	=40	=40	=40	=40	=40	=40	=40	=40	=40	=40	=40	=40	=40	=40	=40	=40	=40	=40	=40	=40	=40
*	*	*	*	*	*	*	*	*	*	*	*	*	*	*	*	*	*	*	*	*	*	*	*	*color:blue	*	*	*	*
!	!	!	!	!LO:DY:color=blue	!	!	!	!	!	!	!	!	!	!	!	!	!	!	!LO:DY:t=pp.	!	!	!LO:DY:color=red	!	!	!LO:DY:t=pp.	!	!	!
2D/	(1GG\	(>4g/	12B-X</L	p	8GG/	-bis.	pp	8G/	-bis	.	8B-X/	-bis.	]	8g/	-bis.	.	1D\	O-	pp	8B-X\	-bis.	pp	1d/	O-	pp	8g/	bis.	.
*	*	*	*	*	*	*	*	*	*	*	*	*	*	*	*	*	*	*	*	*	*	*	*	*color:auto	*	*	*	*
.	.	.	12d</	.	.	.	.	.	.	.	.	.	.	.	.	.	.	.	.	.	.	.	.	.	.	.	.	.
.	.	.	.	.	8r	.	.	8r	.	.	8r	.	.	8r	.	.	.	.	.	8r	.	.	.	.	.	8r	.	.
.	.	.	12B-</J	.	.	.	.	.	.	.	.	.	.	.	.	.	.	.	.	.	.	.	.	.	.	.	.	.
!	!	!	!	!	!	!	!	!	!	!	!	!	!	!	!	!	!	!	!	!	!	!	!	!	!	!	!	!LO:DY:t=p.
.	.	8.f#X/L	12A</L	.	4r	.	.	4r	.	.	4r	.	.	4r	.	.	.	.	.	4r	.	.	.	.	.	8f#X/L	Re-	p
.	.	.	12d</	.	.	.	.	.	.	.	.	.	.	.	.	.	.	.	.	.	.	.	.	.	.	.	.	.
!	!	!	!	!	!	!	!	!	!	!	!	!	!	!	!	!	!	!	!	!	!	!	!	!	!LO:HP:b:color=blue	!	!	!LO:HP:color=blue
.	.	.	.	.	.	.	.	.	.	.	.	.	.	.	.	.	.	.	.	.	.	.	.	.	<	8a/J	.	<
.	.	.	12c</J	.	.	.	.	.	.	.	.	.	.	.	.	.	.	.	.	.	.	.	.	.	.	.	.	.
!	!	!	!	!LO:HP:a:color=blue	!	!	!	!	!	!	!	!	!	!	!	!	!	!	!	!	!	!	!	!	!	!	!	!
.	.	16a/Jk	.	<	.	.	.	.	.	.	.	.	.	.	.	.	.	.	.	.	.	.	.	.	.	.	.	.
!	!	!LO:TX:t=P:problem:mixed beam	!	!	!	!	!	!	!	!	!	!	!	!	!	!	!	!	!	!	!	!	!	!	!	!	!	!
4D/	.	4g/	12B-</L	.	2r	.	.	2r	.	.	2r	.	.	2r	.	.	.	.	.	4r	.	.	.	.	.	4g/	-gi-	.
.	.	.	12d\	.	.	.	.	.	.	.	.	.	.	.	.	.	.	.	.	.	.	.	.	.	.	.	.	.
.	.	.	12g\J	.	.	.	.	.	.	.	.	.	.	.	.	.	.	.	.	.	.	.	.	.	.	.	.	.
!	!	!	!	!	!	!	!	!	!	!	!	!	!	!	!	!	!	!	!	!	!	!LO:DY:t=p.	!	!	!	!	!	!
!	!	!	!	!	!	!	!	!	!	!	!	!	!	!	!	!	!	!	!	!	!	!LO:HP:b:color=blue	!	!	!	!	!	!
4D/	.	4a/	12f#\L	.	.	.	.	.	.	.	.	.	.	.	.	.	.	.	.	4D/	Re-	p < [[	.	.	.	4a/	-na	[[
.	.	.	12d\	.	.	.	.	.	.	.	.	.	.	.	.	.	.	.	.	.	.	.	.	.	.	.	.	.
.	.	.	12f#\J	[	.	.	.	.	.	.	.	.	.	.	.	.	.	.	.	.	.	.	.	.	[	.	.	.
!!LO:PB:g=original
=41	=41	=41	=41	=41	=41	=41	=41	=41	=41	=41	=41	=41	=41	=41	=41	=41	=41	=41	=41	=41	=41	=41	=41	=41	=41	=41	=41	=41
!	!	!	!	!	!	!	!	!	!	!	!	!	!	!	!	!	!	!	!	!	!	!	!	!	!LO:HP:color=blue	!	!	!LO:HP:color=blue
2D/	(2GG\	4b-X/	12g\L	.	1r	.	.	1r	.	.	1r	.	.	1r	.	.	2D\	-ra	.	4G/	-gi-	.	2d/	-ra	>	4b-X\	Con-	>
!	!	!	!	!LO:HP:a:color=blue	!	!	!	!	!	!	!	!	!	!	!	!	!	!	!LO:HP:color=blue	!	!	!	!	!	!	!	!	!
.	.	.	12d\	>	.	.	.	.	.	.	.	.	.	.	.	.	.	.	>	.	.	.	.	.	.	.	.	.
.	.	.	12g\J	.	.	.	.	.	.	.	.	.	.	.	.	.	.	.	.	.	.	.	.	.	.	.	.	.
!	!	!	!	!	!	!	!	!	!	!	!	!	!	!	!	!	!	!	!	!	!	!LO:HP:color=blue	!	!	!	!	!	!
.	.	8.a/L	12f#X\L	.	.	.	.	.	.	.	.	.	.	.	.	.	.	.	.	(8F#X/L	-na	>	.	.	.	8a\L	-fes-	.
.	.	.	12d\	.	.	.	.	.	.	.	.	.	.	.	.	.	.	.	.	.	.	.	.	.	.	.	.	.
.	.	.	.	.	.	.	.	.	.	.	.	.	.	.	.	.	.	.	.	8A/J)	.	.	.	.	.	8cc\J	.	.
.	.	.	12a\J	.	.	.	.	.	.	.	.	.	.	.	.	.	.	.	.	.	.	.	.	.	.	.	.	.
.	.	16cc/Jk	.	.	.	.	.	.	.	.	.	.	.	.	.	.	.	.	.	.	.	.	.	.	.	.	.	.
4G/	4D\	4b-/	12g\L	.	.	.	.	.	.	.	.	.	.	.	.	.	2D\	pro	]	4G/	Vir-	]	2d/	pro	]	4b-\	-so-	]
.	.	.	12d\	]	.	.	.	.	.	.	.	.	.	.	.	.	.	.	.	.	.	.	.	.	.	.	.	.
.	.	.	12g\J	.	.	.	.	.	.	.	.	.	.	.	.	.	.	.	.	.	.	.	.	.	.	.	.	.
4B-X/)	4G\)	4dd/	12d\L	.	.	.	.	.	.	.	.	.	.	.	.	.	.	.	.	4B-X/	-gi-	.	.	.	.	8g\	-rum,	.
.	.	.	12g\	.	.	.	.	.	.	.	.	.	.	.	.	.	.	.	.	.	.	.	.	.	.	.	.	.
.	.	.	.	.	.	.	.	.	.	.	.	.	.	.	.	.	.	.	.	.	.	.	.	.	.	8r	.	.
.	.	.	12d\J)	.	.	.	.	.	.	.	.	.	.	.	.	.	.	.	.	.	.	.	.	.	.	.	.	.
=42	=42	=42	=42	=42	=42	=42	=42	=42	=42	=42	=42	=42	=42	=42	=42	=42	=42	=42	=42	=42	=42	=42	=42	=42	=42	=42	=42	=42
!	!	!	!	!LO:DY:rj:a:color=blue	!	!	!	!	!	!	!	!	!	!	!	!LO:DY:rj:t=pp.	!	!	!	!	!	!	!	!	!	!	!	!
2B-X/	(1A-X\	4dd/	12fn\L	pp	1r	.	.	1r	.	.	1r	.	.	4dd\	o-	pp	2D\	no-	.	4D/	-num,	.	2d/	no-	.	1r	.	.
.	.	.	12d\	.	.	.	.	.	.	.	.	.	.	.	.	.	.	.	.	.	.	.	.	.	.	.	.	.
.	.	.	12f\J	.	.	.	.	.	.	.	.	.	.	.	.	.	.	.	.	.	.	.	.	.	.	.	.	.
!	!	!	!	!	!	!	!	!	!	!	!	!	!	!	!	!LO:HP:color=blue	!	!	!	!	!	!	!	!	!	!	!	!
.	.	8.dd/L	12d\L	.	.	.	.	.	.	.	.	.	.	8.dd\	-ra	<	.	.	.	4r	.	.	.	.	.	.	.	.
.	.	.	12f\	.	.	.	.	.	.	.	.	.	.	.	.	.	.	.	.	.	.	.	.	.	.	.	.	.
.	.	.	12d\J	.	.	.	.	.	.	.	.	.	.	.	.	.	.	.	.	.	.	.	.	.	.	.	.	.
!	!	!	!	!LO:HP:a:color=blue	!	!	!	!	!	!	!	!	!	!	!	!	!	!	!	!	!	!	!	!	!	!	!	!
.	.	16dd/Jk	.	<	.	.	.	.	.	.	.	.	.	16dd\	pro	.	.	.	.	.	.	.	.	.	.	.	.	.
2Bn/	.	2dd/	12f\L	.	.	.	.	.	.	.	.	.	.	[2dd\	no-	[	4D\	-bis.	.	2r	.	.	4d/	-bis,	.	.	.	.
.	.	.	12d\	.	.	.	.	.	.	.	.	.	.	.	.	.	.	.	.	.	.	.	.	.	.	.	.	.
.	.	.	12f\J	.	.	.	.	.	.	.	.	.	.	.	.	.	.	.	.	.	.	.	.	.	.	.	.	.
.	.	.	12d\L	.	.	.	.	.	.	.	.	.	.	.	.	.	4r	.	.	.	.	.	4r	.	.	.	.	.
.	.	.	12f\	.	.	.	.	.	.	.	.	.	.	.	.	.	.	.	.	.	.	.	.	.	.	.	.	.
.	.	.	12d\J	[	.	.	.	.	.	.	.	.	.	.	.	.	.	.	.	.	.	.	.	.	.	.	.	.
=43	=43	=43	=43	=43	=43	=43	=43	=43	=43	=43	=43	=43	=43	=43	=43	=43	=43	=43	=43	=43	=43	=43	=43	=43	=43	=43	=43	=43
!	!	!	!	!	!	!	!	!	!	!LO:DY:rj:t=pp.	!	!	!	!	!	!LO:HP:color=blue	!	!	!	!	!	!	!	!	!	!	!	!
2.c/	2A-X\	4dd/	12fn\L	.	1r	.	.	4d\	o-	pp	1r	.	.	(4dd\]	.	>	1r	.	.	2r	.	.	2r	.	.	2r	.	.
.	.	.	12e\	.	.	.	.	.	.	.	.	.	.	.	.	.	.	.	.	.	.	.	.	.	.	.	.	.
.	.	.	12d\J	.	.	.	.	.	.	.	.	.	.	.	.	.	.	.	.	.	.	.	.	.	.	.	.	.
!	!	!	!	!LO:HP:a:color=blue	!	!	!	!	!	!	!	!	!	!	!	!	!	!	!	!	!	!	!	!	!	!	!	!
.	.	8.dd/L	12f\L	>	.	.	.	8.d\	-ra	.	.	.	.	8cc\L	.	.	.	.	.	.	.	.	.	.	.	.	.	.
.	.	.	12d\	.	.	.	.	.	.	.	.	.	.	.	.	.	.	.	.	.	.	.	.	.	.	.	.	.
.	.	.	.	.	.	.	.	.	.	.	.	.	.	8b-X\J	.	.	.	.	.	.	.	.	.	.	.	.	.	.
.	.	.	12f\J	.	.	.	.	.	.	.	.	.	.	.	.	.	.	.	.	.	.	.	.	.	.	.	.	.
.	.	16dd/Jk	.	.	.	.	.	16d\	pro	.	.	.	.	.	.	.	.	.	.	.	.	.	.	.	.	.	.	.
.	4An\	4dd/	12f#X\L	.	.	.	.	2d\	no-	.	.	.	.	2a/)	.	]	.	.	.	4r	.	.	4r	.	.	4r	.	.
.	.	.	12e\	.	.	.	.	.	.	.	.	.	.	.	.	.	.	.	.	.	.	.	.	.	.	.	.	.
.	.	.	12d\J	]	.	.	.	.	.	.	.	.	.	.	.	.	.	.	.	.	.	.	.	.	.	.	.	.
!	!	!	!	!	!	!	!	!	!	!	!	!	!	!	!	!	!	!	!	!	!	!LO:DY:rj:t=pp.	!	!	!LO:DY:rj:t=pp.	!	!	!LO:DY:t=pp.
12A/L	4A\ 4D\	(4f#^^/	(4c\	.	.	.	.	.	.	.	.	.	.	.	.	.	.	.	.	4d\	Re-	pp	4d/	Re-	pp	4d/	Re-	pp
12B/	.	.	.	.	.	.	.	.	.	.	.	.	.	.	.	.	.	.	.	.	.	.	.	.	.	.	.	.
12A/J)	.	.	.	.	.	.	.	.	.	.	.	.	.	.	.	.	.	.	.	.	.	.	.	.	.	.	.	.
=44	=44	=44	=44	=44	=44	=44	=44	=44	=44	=44	=44	=44	=44	=44	=44	=44	=44	=44	=44	=44	=44	=44	=44	=44	=44	=44	=44	=44
!	!	!	!	!	!	!	!LO:DY:t=ppp.	!	!	!	!	!	!LO:DY:t=ppp.	!	!	!	!	!	!	!	!	!	!	!	!	!	!	!
(4G/	[1GG\	(4g/)	12B\L)	.	1D\	o-	ppp	8G/	-bis,	.	1d/	o-	ppp	8g/	-bis.	.	2r	.	.	4Bn\	-gi-	.	4g/	-gi-	.	4g/	-gi-	.
.	.	.	12d\	.	.	.	.	.	.	.	.	.	.	.	.	.	.	.	.	.	.	.	.	.	.	.	.	.
.	.	.	.	.	.	.	.	8r	.	.	.	.	.	8r	.	.	.	.	.	.	.	.	.	.	.	.	.	.
.	.	.	12B\J	.	.	.	.	.	.	.	.	.	.	.	.	.	.	.	.	.	.	.	.	.	.	.	.	.
4D/	.	8.f#X/L	12A\L	.	.	.	.	4r	.	.	.	.	.	4r	.	.	.	.	.	4A\	-na	.	4c/	-na	.	(8f#X/L	-na	.
.	.	.	12d\	.	.	.	.	.	.	.	.	.	.	.	.	.	.	.	.	.	.	.	.	.	.	.	.	.
.	.	.	.	.	.	.	.	.	.	.	.	.	.	.	.	.	.	.	.	.	.	.	.	.	.	8a/J)	.	.
.	.	.	12c\J	.	.	.	.	.	.	.	.	.	.	.	.	.	.	.	.	.	.	.	.	.	.	.	.	.
.	.	16a/Jk	.	.	.	.	.	.	.	.	.	.	.	.	.	.	.	.	.	.	.	.	.	.	.	.	.	.
4G/	.	4g/	12B\L	.	.	.	.	2r	.	.	.	.	.	2r	.	.	4r	.	.	4G\	om-	.	4B/	om-	.	4g/	om-	.
.	.	.	12d\	.	.	.	.	.	.	.	.	.	.	.	.	.	.	.	.	.	.	.	.	.	.	.	.	.
.	.	.	12g\J	.	.	.	.	.	.	.	.	.	.	.	.	.	.	.	.	.	.	.	.	.	.	.	.	.
!	!	!	!	!	!	!	!	!	!	!	!	!	!	!	!	!	!	!	!LO:DY:rj:color=red	!	!	!	!	!	!	!	!	!
4D/	.	4a/	12f#\L	.	.	.	.	.	.	.	.	.	.	.	.	.	4D\	Re-	pp	4F#\	-ni-	.	4d/	-ni-	.	4a/	-ni-	.
.	.	.	12e\	.	.	.	.	.	.	.	.	.	.	.	.	.	.	.	.	.	.	.	.	.	.	.	.	.
.	.	.	12d\J	.	.	.	.	.	.	.	.	.	.	.	.	.	.	.	.	.	.	.	.	.	.	.	.	.
!!LO:PB:g=original
=45	=45	=45	=45	=45	=45	=45	=45	=45	=45	=45	=45	=45	=45	=45	=45	=45	=45	=45	=45	=45	=45	=45	=45	=45	=45	=45	=45	=45
4G/	2.GG\]	4b/	12g\L	.	2D\	-ra	.	1r	.	.	2d/	-ra	.	1r	.	.	4G\	-gi-	.	4G/	-um	.	4d/	-um	.	4bn\	-um	.
.	.	.	12d\	.	.	.	.	.	.	.	.	.	.	.	.	.	.	.	.	.	.	.	.	.	.	.	.	.
.	.	.	12g\J	.	.	.	.	.	.	.	.	.	.	.	.	.	.	.	.	.	.	.	.	.	.	.	.	.
!	!	!	!	!LO:HP:color=blue	!	!	!	!	!	!	!	!	!	!	!	!	!	!	!	!	!	!	!	!	!	!	!	!
4D/	.	8.a/L	12f#X\L	<	.	.	.	.	.	.	.	.	.	.	.	.	4D\	-na	.	4F#/	San-	.	4d/	San-	.	8a\L	San-	.
.	.	.	12d\	.	.	.	.	.	.	.	.	.	.	.	.	.	.	.	.	.	.	.	.	.	.	.	.	.
.	.	.	.	.	.	.	.	.	.	.	.	.	.	.	.	.	.	.	.	.	.	.	.	.	.	8cc\J	.	.
!	!	!	!	!	!	!	!	!	!	!	!	!	!	!	!	!	!	!	!LO:HP:color=red	!	!	!	!	!	!	!	!	!
.	.	.	12a\J	.	.	.	.	.	.	.	.	.	.	.	.	.	.	.	<	.	.	.	.	.	.	.	.	.
.	.	16cc/Jk	.	.	.	.	.	.	.	.	.	.	.	.	.	.	.	.	.	.	.	.	.	.	.	.	.	.
2G/)	.	4b/	12g\L	.	2D\	pro	.	.	.	.	2d/	pro	.	.	.	.	4BB/	om-	.	4G/	-cto-	.	4d/	-cto-	.	4b\	-cto-	.
.	.	.	12f#\	.	.	.	.	.	.	.	.	.	.	.	.	.	.	.	.	.	.	.	.	.	.	.	.	.
.	.	.	12e\J	.	.	.	.	.	.	.	.	.	.	.	.	.	.	.	.	.	.	.	.	.	.	.	.	.
.	4BB\	4dd/)	12d\L	.	.	.	.	.	.	.	.	.	.	.	.	.	4GG/	-ni-	[[	8D/	-rum,	.	8B/	-rum,	.	8g/	-rum,	.
.	.	.	12g\	[	.	.	.	.	.	.	.	.	.	.	.	.	.	.	.	.	.	.	.	.	.	.	.	.
.	.	.	.	.	.	.	.	.	.	.	.	.	.	.	.	.	.	.	.	8r	.	.	8r	.	.	8r	.	.
.	.	.	12b\J	.	.	.	.	.	.	.	.	.	.	.	.	.	.	.	.	.	.	.	.	.	.	.	.	.
*v	*v	*	*	*	*	*	*	*	*	*	*	*	*	*	*	*	*	*	*	*	*	*	*	*	*	*	*	*
=46	=46	=46	=46	=46	=46	=46	=46	=46	=46	=46	=46	=46	=46	=46	=46	=46	=46	=46	=46	=46	=46	=46	=46	=46	=46	=46	=46
!	!	!	!	!	!	!	!	!	!LO:DY:rj:t=pp.	!	!	!	!	!	!	!	!	!LO:HP:color=red	!	!	!	!	!	!	!	!	!
2A\ 2D\	4dd/	12f#\L	.	2D\	no-	.	4d\	o-	pp	2d/	no-	.	1r	.	.	4D\	-um	>	1r	.	.	1r	.	.	1r	.	.
.	.	12a\	.	.	.	.	.	.	.	.	.	.	.	.	.	.	.	.	.	.	.	.	.	.	.	.	.
.	.	12d\J	.	.	.	.	.	.	.	.	.	.	.	.	.	.	.	.	.	.	.	.	.	.	.	.	.
!	!	!	!	!	!	!	!	!	!LO:HP:color=blue	!	!	!	!	!	!	!	!	!	!	!	!	!	!	!	!	!	!
.	8.dd/L	12f#\L	.	.	.	.	8.d\	-ra	<	.	.	.	.	.	.	4D\	San-	.	.	.	.	.	.	.	.	.	.
.	.	12a\	.	.	.	.	.	.	.	.	.	.	.	.	.	.	.	.	.	.	.	.	.	.	.	.	.
.	.	12d\J	.	.	.	.	.	.	.	.	.	.	.	.	.	.	.	.	.	.	.	.	.	.	.	.	.
.	16dd/Jk	.	.	.	.	.	16d\	pro	.	.	.	.	.	.	.	.	.	.	.	.	.	.	.	.	.	.	.
2B\ 2F#\ 2BB\	(2dd/	12f#\L	.	4D\	-bis,	.	[2d\	no-	[[	4d/	-bis,	.	.	.	.	2D\	-cto-	]]	.	.	.	.	.	.	.	.	.
.	.	12b\	.	.	.	.	.	.	.	.	.	.	.	.	.	.	.	.	.	.	.	.	.	.	.	.	.
.	.	12d\J	.	.	.	.	.	.	.	.	.	.	.	.	.	.	.	.	.	.	.	.	.	.	.	.	.
.	.	12f#\L	.	4r	.	.	.	.	.	4r	.	.	.	.	.	.	.	.	.	.	.	.	.	.	.	.	.
!	!	!	!LO:HP:color=blue	!	!	!	!	!	!	!	!	!	!	!	!	!	!	!	!	!	!	!	!	!	!	!	!
.	.	12b\	>	.	.	.	.	.	.	.	.	.	.	.	.	.	.	.	.	.	.	.	.	.	.	.	.
.	.	12d\J	.	.	.	.	.	.	.	.	.	.	.	.	.	.	.	.	.	.	.	.	.	.	.	.	.
=47	=47	=47	=47	=47	=47	=47	=47	=47	=47	=47	=47	=47	=47	=47	=47	=47	=47	=47	=47	=47	=47	=47	=47	=47	=47	=47	=47
!	!	!	!	!	!	!LO:DY:t=pp.	!	!	!	!	!	!	!	!	!	!	!	!	!	!	!	!	!	!	!	!	!
4GG/	4b/	12g\L	.	4D\	o-	pp	(>4d\]	.	.	1r	.	.	1r	.	.	4D\	-rum,	.	1r	.	.	1r	.	.	1r	.	.
!	!	!	!	!	!	!	!	!	!LO:HP:color=blue	!	!	!	!	!	!	!	!	!	!	!	!	!	!	!	!	!	!
.	.	12d\	.	.	.	.	.	.	>	.	.	.	.	.	.	.	.	.	.	.	.	.	.	.	.	.	.
.	.	12g\J	.	.	.	.	.	.	.	.	.	.	.	.	.	.	.	.	.	.	.	.	.	.	.	.	.
4D/	8.a/L	12a\L	.	8.D\	-ra	.	8c\L	.	.	.	.	.	.	.	.	4r	.	.	.	.	.	.	.	.	.	.	.
.	.	12d\	.	.	.	.	.	.	.	.	.	.	.	.	.	.	.	.	.	.	.	.	.	.	.	.	.
.	.	.	.	.	.	.	8Bn\J	.	.	.	.	.	.	.	.	.	.	.	.	.	.	.	.	.	.	.	.
*	*	*color:red	*	*	*	*	*	*	*	*	*	*	*	*	*	*	*	*	*	*	*	*	*	*	*	*	*
.	.	12e\J	.	.	.	.	.	.	.	.	.	.	.	.	.	.	.	.	.	.	.	.	.	.	.	.	.
.	16g/Jk	.	.	16D\	pro	.	.	.	.	.	.	.	.	.	.	.	.	.	.	.	.	.	.	.	.	.	.
4DD/	12f#X/L	12f#X\L	.	2D\	no-	.	2A/)	.	]	.	.	.	.	.	.	2r	.	.	.	.	.	.	.	.	.	.	.
.	12d/	12d\	]	.	.	.	.	.	.	.	.	.	.	.	.	.	.	.	.	.	.	.	.	.	.	.	.
.	12a/J	12a\J	.	.	.	.	.	.	.	.	.	.	.	.	.	.	.	.	.	.	.	.	.	.	.	.	.
*	*	*color:auto	*	*	*	*	*	*	*	*	*	*	*	*	*	*	*	*	*	*	*	*	*	*	*	*	*
4D/	12f#/L	4c\	.	.	.	.	.	.	.	.	.	.	.	.	.	.	.	.	.	.	.	.	.	.	.	.	.
.	12d/	.	.	.	.	.	.	.	.	.	.	.	.	.	.	.	.	.	.	.	.	.	.	.	.	.	.
.	12a/J	.	.	.	.	.	.	.	.	.	.	.	.	.	.	.	.	.	.	.	.	.	.	.	.	.	.
=48	=48	=48	=48	=48	=48	=48	=48	=48	=48	=48	=48	=48	=48	=48	=48	=48	=48	=48	=48	=48	=48	=48	=48	=48	=48	=48	=48
!	!LO:TX:t=P:problem:mixed beam	!	!LO:HP:a	!	!	!	!	!	!	!	!	!	!	!	!	!	!	!	!	!	!	!	!	!	!	!	!
4GG\	4g/)	12B\L	<	4GG/	-bis,	.	4G/	-bis,	.	1r	.	.	1r	.	.	2r	.	.	2r	.	.	2r	.	.	2r	.	.
.	.	12d\	.	.	.	.	.	.	.	.	.	.	.	.	.	.	.	.	.	.	.	.	.	.	.	.	.
.	.	12G</J	.	.	.	.	.	.	.	.	.	.	.	.	.	.	.	.	.	.	.	.	.	.	.	.	.
!	!LO:TX:t=P:problem:mixed beam	!	!	!	!	!	!	!	!	!	!	!	!	!	!	!	!	!	!	!	!	!	!	!	!	!	!
4r	4ryy	12B</L	.	4r	.	.	4r	.	.	.	.	.	.	.	.	.	.	.	.	.	.	.	.	.	.	.	.
.	.	12d\	[	.	.	.	.	.	.	.	.	.	.	.	.	.	.	.	.	.	.	.	.	.	.	.	.
.	.	12g\J	f	.	.	.	.	.	.	.	.	.	.	.	.	.	.	.	.	.	.	.	.	.	.	.	.
!	!	!	!	!	!	!	!	!	!	!	!	!	!	!	!	!	!	!LO:DY:rj	!	!	!LO:DY:rj	!	!	!LO:DY:rj	!	!	!LO:DY:rj
4d\ 4G\	4gg/	12b\L	.	2r	.	.	2r	.	.	.	.	.	.	.	.	4G\	o-	f	4d\	o-	f	4b\	o-	f	4dd\	o-	f
.	.	12dd\	.	.	.	.	.	.	.	.	.	.	.	.	.	.	.	.	.	.	.	.	.	.	.	.	.
.	.	12g\J	.	.	.	.	.	.	.	.	.	.	.	.	.	.	.	.	.	.	.	.	.	.	.	.	.
8.d\L 8.G\	8.gg/L	12b\L	.	.	.	.	.	.	.	.	.	.	.	.	.	8.G\	-ra	.	8.d\	-ra	.	8.b\	-ra	.	8.dd\	-ra	.
.	.	12dd\	.	.	.	.	.	.	.	.	.	.	.	.	.	.	.	.	.	.	.	.	.	.	.	.	.
.	.	12g\J	.	.	.	.	.	.	.	.	.	.	.	.	.	.	.	.	.	.	.	.	.	.	.	.	.
16d\Jk 16G\	16gg/Jk	.	.	.	.	.	.	.	.	.	.	.	.	.	.	16G\	pro	.	16d\	pro	.	16b\	pro	.	16dd\	pro	.
!!LO:PB:g=original
=49	=49	=49	=49	=49	=49	=49	=49	=49	=49	=49	=49	=49	=49	=49	=49	=49	=49	=49	=49	=49	=49	=49	=49	=49	=49	=49	=49
!	!	!	!	!	!	!	!	!	!	!	!	!	!	!	!	!	!	!LO:HP:b	!	!	!LO:HP:b	!	!	!LO:HP:b	!	!	!LO:HP:b
4d\ 4G\	4gg/	12b\L	.	2r	.	.	2r	.	.	2r	.	.	2r	.	.	(1G\	no-	>]	(1d/	no-	>]	(1b\	no-	>]	(1gg\	no-	>]
!	!	!	!LO:HP:a	!	!	!	!	!	!	!	!	!	!	!	!	!	!	!	!	!	!	!	!	!	!	!	!
.	.	12dd\	>	.	.	.	.	.	.	.	.	.	.	.	.	.	.	.	.	.	.	.	.	.	.	.	.
.	.	12g\J	.	.	.	.	.	.	.	.	.	.	.	.	.	.	.	.	.	.	.	.	.	.	.	.	.
*	*color:red	*	*	*	*	*	*	*	*	*	*	*	*	*	*	*	*	*	*	*	*	*	*	*	*	*	*
!	!LO:TX:t=P:problem:mixed beam	!	!	!	!	!	!	!	!	!	!	!	!	!	!	!	!	!	!	!	!	!	!	!	!	!	!
4r	4r	12d\L	.	.	.	.	.	.	.	.	.	.	.	.	.	.	.	.	.	.	.	.	.	.	.	.	.
*	*color:auto	*	*	*	*	*	*	*	*	*	*	*	*	*	*	*	*	*	*	*	*	*	*	*	*	*	*
.	.	12B</	.	.	.	.	.	.	.	.	.	.	.	.	.	.	.	.	.	.	.	.	.	.	.	.	.
.	.	12G</J	.	.	.	.	.	.	.	.	.	.	.	.	.	.	.	.	.	.	.	.	.	.	.	.	.
!	!LO:TX:t=P:problem:mixed beam	!	!LO:DY:rj:t=p.	!	!	!LO:DY:rj:t=p.	!	!	!LO:DY:rj:t=p.	!	!	!LO:DY:rj:t=p.	!	!	!LO:DY:rj:t=p.	!	!	!	!	!	!	!	!	!	!	!	!
4D\ 4GG\	4g/	12B\L	] p	4GG/	o-	p	4D/	o-	p	4B/	o-	p	4g/	o-	p	.	.	.	.	.	.	.	.	.	.	.	.
.	.	12d\	.	.	.	.	.	.	.	.	.	.	.	.	.	.	.	.	.	.	.	.	.	.	.	.	.
.	.	12G</J	.	.	.	.	.	.	.	.	.	.	.	.	.	.	.	.	.	.	.	.	.	.	.	.	.
!	!LO:TX:t=P:problem:mixed beam	!	!	!	!	!	!	!	!	!	!	!	!	!	!	!	!	!	!	!	!	!	!	!	!	!	!
8.D\L 8.GG\	8.g/L	12B\L	.	8.GG/	-ra	.	8.D/	-ra	.	8.B/	-ra	.	8.g/	-ra	.	.	.	.	.	.	.	.	.	.	.	.	.
.	.	12d\	.	.	.	.	.	.	.	.	.	.	.	.	.	.	.	.	.	.	.	.	.	.	.	.	.
.	.	12G</J	.	.	.	.	.	.	.	.	.	.	.	.	.	.	.	.	.	.	.	.	.	.	.	.	.
16D\Jk 16GG\	16g/Jk	.	.	16GG/	pro	.	16D/	pro	.	16B/	pro	.	16g/	pro	.	.	.	.	.	.	.	.	.	.	.	.	.
=50	=50	=50	=50	=50	=50	=50	=50	=50	=50	=50	=50	=50	=50	=50	=50	=50	=50	=50	=50	=50	=50	=50	=50	=50	=50	=50	=50
4D\ 4GG\	4g/	12B\L	.	1GG/	no-	.	1D/	no-	.	1B/	no-	.	1g/	no-	.	4G\)	-bis,	.	4B\)	-bis,	.	4d/)	-bis,	.	4g/)	-bis,	.
!	!	!	!LO:HP:a	!	!	!	!	!	!	!	!	!	!	!	!	!	!	!	!	!	!	!	!	!	!	!	!
.	.	12d\	<	.	.	.	.	.	.	.	.	.	.	.	.	.	.	.	.	.	.	.	.	.	.	.	.
.	.	12g\J	.	.	.	.	.	.	.	.	.	.	.	.	.	.	.	.	.	.	.	.	.	.	.	.	.
*	*color:red	*	*	*	*	*	*	*	*	*	*	*	*	*	*	*	*	*	*	*	*	*	*	*	*	*	*
4r	4r	12b\L	.	.	.	.	.	.	.	.	.	.	.	.	.	4r	.	.	4r	.	.	4r	.	.	4r	.	.
*	*color:auto	*	*	*	*	*	*	*	*	*	*	*	*	*	*	*	*	*	*	*	*	*	*	*	*	*	*
.	.	12dd\	.	.	.	.	.	.	.	.	.	.	.	.	.	.	.	.	.	.	.	.	.	.	.	.	.
.	.	12gg\J	[	.	.	.	.	.	.	.	.	.	.	.	.	.	.	.	.	.	.	.	.	.	.	.	.
!	!	!	!LO:DY:rj	!	!	!	!	!	!	!	!	!	!	!	!	!	!	!LO:DY:rj	!	!	!LO:DY:rj	!	!	!LO:DY:rj	!	!	!
4g\ 4d\ 4B\ 4G\	4bb/	12dd\L	f	.	.	.	.	.	.	.	.	.	.	.	.	4G\	o-	f	4d\	o-	f	4g/	o-	f	4b\	o-	f
.	.	12gg\	.	.	.	.	.	.	.	.	.	.	.	.	.	.	.	.	.	.	.	.	.	.	.	.	.
.	.	12b\J	.	.	.	.	.	.	.	.	.	.	.	.	.	.	.	.	.	.	.	.	.	.	.	.	.
8.g\L 8.d\ 8.B\ 8.G\	8.bb/L	12dd\L	.	.	.	.	.	.	.	.	.	.	.	.	.	8.G\	-ra	.	8.d\	-ra	.	8.g/	-ra	.	8.b\	-ra	.
.	.	12gg\	.	.	.	.	.	.	.	.	.	.	.	.	.	.	.	.	.	.	.	.	.	.	.	.	.
.	.	12b\J	.	.	.	.	.	.	.	.	.	.	.	.	.	.	.	.	.	.	.	.	.	.	.	.	.
16g\Jk 16d\ 16B\ 16G\	16bb/Jk	.	.	.	.	.	.	.	.	.	.	.	.	.	.	16G\	pro	.	16d\	pro	.	16g/	pro	.	16b\	pro	.
=51	=51	=51	=51	=51	=51	=51	=51	=51	=51	=51	=51	=51	=51	=51	=51	=51	=51	=51	=51	=51	=51	=51	=51	=51	=51	=51	=51
!	!	!	!	!	!	!	!	!	!	!	!	!	!	!	!	!	!	!LO:HP:b	!	!	!LO:HP:b	!	!	!	!	!	!LO:HP:b
4.g\ 4.d\ 4.B\ 4.G\	4bb/	12dd\L	>	4GG/	-bis,	.	4D/	-bis,	.	4B/	-bis,	.	4d/	-bis,	.	(1G\	no-	>]	(>1g/	no-	>]	(1b\	no-	>]	(1dd\	no-	>]
.	.	12gg\	.	.	.	.	.	.	.	.	.	.	.	.	.	.	.	.	.	.	.	.	.	.	.	.	.
.	.	12dd\J	.	.	.	.	.	.	.	.	.	.	.	.	.	.	.	.	.	.	.	.	.	.	.	.	.
.	4ryy	12b/L	.	4r	.	.	4r	.	.	4r	.	.	4r	.	.	.	.	.	.	.	.	.	.	.	.	.	.
.	.	12g/	.	.	.	.	.	.	.	.	.	.	.	.	.	.	.	.	.	.	.	.	.	.	.	.	.
8ryy	.	.	.	.	.	.	.	.	.	.	.	.	.	.	.	.	.	.	.	.	.	.	.	.	.	.	.
.	.	12d/J	.	.	.	.	.	.	.	.	.	.	.	.	.	.	.	.	.	.	.	.	.	.	.	.	.
2ryy	4g/	12B\L	]	4GG/	o-	.	4G/	o-	.	4B/	o-	.	4d/	o-	.	.	.	.	.	.	.	.	.	.	.	.	.
.	.	12d\	.	.	.	.	.	.	.	.	.	.	.	.	.	.	.	.	.	.	.	.	.	.	.	.	.
.	.	12B\J	.	.	.	.	.	.	.	.	.	.	.	.	.	.	.	.	.	.	.	.	.	.	.	.	.
.	8.g/L	12G</L	.	8.GG/	-ra	.	8.G/	-ra	.	8.B/	-ra	.	8.d/	-ra	.	.	.	.	.	.	.	.	.	.	.	.	.
.	.	12D</	.	.	.	.	.	.	.	.	.	.	.	.	.	.	.	.	.	.	.	.	.	.	.	.	.
.	.	12BB</J	.	.	.	.	.	.	.	.	.	.	.	.	.	.	.	.	.	.	.	.	.	.	.	.	.
.	16g/Jk	.	.	16BB/	pro	.	16G/	pro	.	16B/	pro	.	16d/	pro	.	.	.	.	.	.	.	.	.	.	.	.	.
*	*v	*v	*	*	*	*	*	*	*	*	*	*	*	*	*	*	*	*	*	*	*	*	*	*	*	*	*
=52	=52	=52	=52	=52	=52	=52	=52	=52	=52	=52	=52	=52	=52	=52	=52	=52	=52	=52	=52	=52	=52	=52	=52	=52	=52	=52
8GG/	4r	.	[1D\	no-	.	[1D/	no-	.	[1d/	no-	.	[1d/	no-	.	8GG/)	-bis,	.	8G/)	-bis,	.	8g/)	-bis,	.	8g/)	-bis,	.
!	!	!	!	!	!	!	!	!LO:HP:b:color=red	!	!	!LO:HP:b:color=red	!	!	!LO:HP:b:color=red	!	!	!	!	!	!	!	!	!	!	!	!
8r	.	.	.	.	.	.	.	<	.	.	<	.	.	<	8r	.	.	8r	.	.	8r	.	.	8r	.	.
!	!	!	!	!	!	!	!	!	!	!	!	!	!	!	!	!	!LO:DY:rj:t=p.	!	!	!LO:DY:t=p.	!	!	!LO:DY:t=p.	!	!	!LO:DY:t=p.
!	!	!LO:DY:color=blue	!	!	!	!	!	!	!	!	!	!	!	!	!	!	!LO:HP:color=blue	!	!	!LO:HP:color=blue	!	!	!LO:HP:color=blue	!	!	!LO:HP:color=blue
(<4BB/	(>4g/ 4d/	p	.	.	.	.	.	.	.	.	.	.	.	.	4BB/	o-	p <	4G/	o-	p <	4d/	o-	p <	4g/	o-	p <
!	!	!LO:HP:color=blue	!	!	!	!	!	!	!	!	!	!	!	!	!	!	!	!	!	!	!	!	!	!	!	!
4AA/	4f#X/ 4d/ 4c/	<	.	.	.	.	.	.	.	.	.	.	.	.	4AA/	-ra	.	4A/	-ra	.	4c/	-ra	.	4f#/	-ra	.
4GG/	4g/ 4d/ 4B/	[[	.	.	.	.	.	[	.	.	[	.	.	[	4GG/	pro	[[	4B/	pro	[[	4B/	pro	[[	4g/	pro	[[
!!LO:PB:g=original
=53	=53	=53	=53	=53	=53	=53	=53	=53	=53	=53	=53	=53	=53	=53	=53	=53	=53	=53	=53	=53	=53	=53	=53	=53	=53	=53
*^	*^	*	*	*	*	*	*	*	*	*	*	*	*	*	*	*	*	*	*	*	*	*	*	*	*	*
8F#/L	4FF#\	4cc/	[2d\	.	1D\]	.	.	1D/]	.	.	1d/]	.	.	1d/]	.	.	1D\	no-	.	(4A/	no-	.	(2.d/	no-	.	(>4cc\	no-	.
!	!	!	!	!	!	!	!	!	!	!	!	!	!LO:HP:b:color=red	!	!	!LO:HP:b:color=red	!	!	!LO:HP:color=blue	!	!	!LO:HP:b:color=blue	!	!	!LO:HP:b:color=blue	!	!	!LO:HP:b:color=blue
8A/J	.	.	.	.	.	.	.	.	.	.	.	.	>	.	.	>	.	.	>	.	.	>	.	.	>	.	.	>
!	!	!	!	!LO:HP:color=blue	!	!	!	!	!	!LO:HP:b:color=red	!	!	!	!	!	!	!	!	!	!	!	!	!	!	!	!	!	!
(2G/	8GG\L	4b/	.	>	.	.	.	.	.	>	.	.	.	.	.	.	.	.	.	(2G/)	.	.	.	.	.	4b\	.	.
.	8BB\J	.	.	.	.	.	.	.	.	.	.	.	.	.	.	.	.	.	]]	.	.	]]	.	.	]]	.	.	.
*	*color:red	*	*	*	*	*	*	*	*	*	*	*	*	*	*	*	*	*	*	*	*	*	*	*	*	*	*	*
.	4D\	2a/	4d\]	.	.	.	.	.	.	.	.	.	.	.	.	.	.	.	.	.	.	.	.	.	.	2a/)	.	]]
4F#/) 4DD/	4DD\	.	4c\	]]	.	.	.	.	.	]	.	.	]	.	.	]	.	.	.	4F#/)	.	.	4c/)	.	.	.	.	.
*	*color:auto	*	*	*	*	*	*	*	*	*	*	*	*	*	*	*	*	*	*	*	*	*	*	*	*	*	*	*
*v	*v	*	*	*	*	*	*	*	*	*	*	*	*	*	*	*	*	*	*	*	*	*	*	*	*	*	*	*
=54	=54	=54	=54	=54	=54	=54	=54	=54	=54	=54	=54	=54	=54	=54	=54	=54	=54	=54	=54	=54	=54	=54	=54	=54	=54	=54	=54
!	!LO:TX:t=P:problem:mixed beam	!	!	!	!	!	!	!	!	!	!	!	!	!	!	!	!	!	!	!	!	!	!	!	!	!	!
2GG\)	2g/)	12B\L	.	4GG/	-bis.	.	4G/	-bis.	.	4G/	-bis.	.	4g/	-bis.	.	[1GG/	-bis.	.	[1G/	-bis.	.	[1B/	-bis.	.	[>1g/	-bis.	.
.	.	12d\	.	.	.	.	.	.	.	.	.	.	.	.	.	.	.	.	.	.	.	.	.	.	.	.	.
.	.	12G</J	.	.	.	.	.	.	.	.	.	.	.	.	.	.	.	.	.	.	.	.	.	.	.	.	.
!	!LO:TX:t=P:problem:mixed beam	!	!	!	!	!	!	!	!	!	!	!	!	!	!	!	!	!	!	!	!	!	!	!	!	!	!
.	.	12B\L	.	4r	.	.	4r	.	.	4r	.	.	4r	.	.	.	.	.	.	.	.	.	.	.	.	.	.
.	.	12d\	.	.	.	.	.	.	.	.	.	.	.	.	.	.	.	.	.	.	.	.	.	.	.	.	.
.	.	12G</J	.	.	.	.	.	.	.	.	.	.	.	.	.	.	.	.	.	.	.	.	.	.	.	.	.
!	!LO:TX:t=P:problem:mixed beam	!	!LO:DY:a:rj:t=pp.	!	!	!	!	!	!	!	!	!	!	!	!	!	!	!	!	!	!	!	!	!	!	!	!
4D\ 4GG\	4g/	12B\L	pp	2r	.	.	2r	.	.	2r	.	.	2r	.	.	.	.	.	.	.	.	.	.	.	.	.	.
.	.	12d\	.	.	.	.	.	.	.	.	.	.	.	.	.	.	.	.	.	.	.	.	.	.	.	.	.
.	.	12G</J	.	.	.	.	.	.	.	.	.	.	.	.	.	.	.	.	.	.	.	.	.	.	.	.	.
!	!LO:TX:t=P:problem:mixed beam	!	!	!	!	!	!	!	!	!	!	!	!	!	!	!	!	!	!	!	!	!	!	!	!	!	!
8.D\L 8.GG\	8.g/L	12B\L	.	.	.	.	.	.	.	.	.	.	.	.	.	.	.	.	.	.	.	.	.	.	.	.	.
.	.	12d\	.	.	.	.	.	.	.	.	.	.	.	.	.	.	.	.	.	.	.	.	.	.	.	.	.
.	.	12G</J	.	.	.	.	.	.	.	.	.	.	.	.	.	.	.	.	.	.	.	.	.	.	.	.	.
16D\Jk 16GG\	16g/Jk	.	.	.	.	.	.	.	.	.	.	.	.	.	.	.	.	.	.	.	.	.	.	.	.	.	.
=55	=55	=55	=55	=55	=55	=55	=55	=55	=55	=55	=55	=55	=55	=55	=55	=55	=55	=55	=55	=55	=55	=55	=55	=55	=55	=55	=55
!	!LO:TX:t=P:problem:mixed beam	!	!	!	!	!	!	!	!	!	!	!	!LO:TX:b:t=Attacca No4.	!	!	!	!	!	!	!	!	!	!	!	!	!	!
4GG\	2g/	12B\L	.	1r	.	.	1r	.	.	1r	.	.	1r	.	.	4GG/]	.	.	4G/]	.	.	4B/]	.	.	4g/]	.	.
.	.	12d\	.	.	.	.	.	.	.	.	.	.	.	.	.	.	.	.	.	.	.	.	.	.	.	.	.
.	.	12G</J	.	.	.	.	.	.	.	.	.	.	.	.	.	.	.	.	.	.	.	.	.	.	.	.	.
!	!LO:TX:t=P:problem:mixed beam	!	!	!	!	!	!	!	!	!	!	!	!	!	!	!	!	!	!	!	!	!	!	!	!	!	!
4G\ 4GG'>\	.	12B\L	.	.	.	.	.	.	.	.	.	.	.	.	.	4r	.	.	4r	.	.	4r	.	.	4r	.	.
.	.	12d\	.	.	.	.	.	.	.	.	.	.	.	.	.	.	.	.	.	.	.	.	.	.	.	.	.
.	.	12G</J	.	.	.	.	.	.	.	.	.	.	.	.	.	.	.	.	.	.	.	.	.	.	.	.	.
!	!LO:TX:t=P:problem:mixed beam	!	!	!	!	!	!	!	!	!	!	!	!	!	!	!	!	!	!	!	!	!	!	!	!	!	!
!	!LO:TX:b:t=Attacca No4.	!	!	!	!	!	!	!	!	!	!	!	!	!	!	!	!	!	!	!	!	!	!	!	!LO:TX:a:t=Attacca No4.	!	!
4D\ 4DD'>\	2g/	12B\L	.	.	.	.	.	.	.	.	.	.	.	.	.	2r	.	.	2r	.	.	2r	.	.	2r	.	.
.	.	12d\	.	.	.	.	.	.	.	.	.	.	.	.	.	.	.	.	.	.	.	.	.	.	.	.	.
.	.	12G</J	.	.	.	.	.	.	.	.	.	.	.	.	.	.	.	.	.	.	.	.	.	.	.	.	.
!	!LO:TX:t=P:problem:mixed beam	!	!	!	!	!	!	!	!	!	!	!	!	!	!	!	!	!	!	!	!	!	!	!	!	!	!
4BB\ 4BBB'>\	.	12d\L	.	.	.	.	.	.	.	.	.	.	.	.	.	.	.	.	.	.	.	.	.	.	.	.	.
.	.	12G</	.	.	.	.	.	.	.	.	.	.	.	.	.	.	.	.	.	.	.	.	.	.	.	.	.
.	.	12d\J	.	.	.	.	.	.	.	.	.	.	.	.	.	.	.	.	.	.	.	.	.	.	.	.	.
*	*v	*v	*	*	*	*	*	*	*	*	*	*	*	*	*	*	*	*	*	*	*	*	*	*	*	*	*
==	==	==	==	==	==	==	==	==	==	==	==	==	==	==	==	==	==	==	==	==	==	==	==	==	==	==
*-	*-	*-	*-	*-	*-	*-	*-	*-	*-	*-	*-	*-	*-	*-	*-	*-	*-	*-	*-	*-	*-	*-	*-	*-	*-	*-
!!!system-decoration: <[g1]><[g2]>[(s9,s10)]
!!!RDF**kern: > = above
!!!RDF**kern: < = below
!!!RDF**dynam: > = dim.
!!!RDF**kern: @ = marked note, color=blue
!!!RDF**dynam: f = f.
!!!EED: Andrzej Borzym
!!!EST: 2021-07-19
!!!ENC: Tomasz Grochalski
!!!END: 2021-07-09
